!!!!SEGMENT: pl-stab--3b--001-006_rodowski-aleksander--modlitwa-in-b-kiedy-nas-karzesz.krn
!!!cenid: 18xx:3427
!!!COM: Rodowski, Aleksander
!!!COM-rismid: pe30009627
!!!CDT: <1790->1810
!!!CNT: Polish
!!!OPR: Modlitwa in B
!!!OTL: Kiedy nas karzesz
!!!OMV: 006
!!!PDT: 1806
!!!AGN:
!!!SMS-siglum: PL-STAb
!!!SMS-shelfmark: 3b
!!!SMS-shelfwork: 001-006 M
!!!SMS-variant: Cantus: PL-STAb 3b:10-15
!!!SMS-altvar: Cantus: PL-STAb 3b:16-18
!!!NIFC-rismid: 301050648
!!!URL-scan: https://repozytorium.nifc.pl/islandora/object/pl-stab%3A961/datastream/PDF/view
!!!ONB-nifc: UWAGA: części Modlitwy: 1. Przed oczy twoie (Adagio), 2. Umysł utrapieniem (Moderatto), 3. Życie w uciskach (Adagio), 4. Jeżeli sprawiedliwie (Moderato), 5. Wyznawamy (Adagio), 6. Kiedy nas karzesz (Adagio), 7. Oto nas masz (Andante), 8. Racz nam tedy dać (Allegro)
!!!key: F
**kern	**kern	**kern	**kern	**dynam	**kern	**kern	**text	**kern
*group3	*group3	*group2	*group2	*	*group1	*group1	*	*group1
*part6	*part6	*part5	*part4	*part4	*part3	*part2	*part2	*part1
*staff7	*staff6	*staff5	*staff4	*	*staff3	*staff2	*staff2	*staff1
*I"Organo	*I"Organo	*I"Violino Secundo	*I"Violino Primo	*	*I"Baſso	*I"Tenor	*	*I"Canto.
*I'org	*I'org	*I'vl 2	*I'vl 1	*	*I'B	*I'T	*	*I'S
*Iorgan	*Iorgan	*Ivioln	*Ivioln	*	*Ibass	*Itenor	*	*Isoprn
*ICklav	*ICklav	*ICstr	*ICstr	*	*ICvox	*ICvox	*	*ICvox
*IGacmp	*IGacmp	*	*	*	*IGsolo	*IGsolo	*	*IGsolo
*clefF4	*clefG2	*clefG2	*clefG2	*	*clefF4	*clefC4	*	*clefC1
*k[b-]	*k[b-]	*k[b-]	*k[b-]	*	*k[b-]	*k[b-]	*	*k[b-]
*F:	*F:	*F:	*F:	*	*F:	*F:	*	*F:
*M6/8	*M6/8	*M6/8	*M6/8	*	*M6/8	*M6/8	*	*M6/8
*2\right	*2\right	*2\right	*2\right	*	*2\right	*2\right	*	*2\right
=1	=1	=1	=1	=1	=1	=1	=1	=1
!LO:TX:t=P:problem:mixed beam	!LO:TX:t=P:problem:wężowate segno	!	!	!	!LO:TX:a:i:t=Kiedy nas Karzerz Tacet \nTenor Solo	!	!	!
!	!	!	!	!	!	!	!	!LO:TX:a:i:t=Kiedynas Karzesz Tacet Tenor Solo
!	!	!	!LO:TX:a:i:t=Aria Andante	!	!	!	!	!
!	!	!LO:TX:a:i:t=Andante Aria	!	!LO:DY:b:t=for.	!	!	!	!
8FF/L	8.ccL 8.a\	8.a/L	8.cc\L	f	2.ryy	2.r	.	2.ryy
8F\	.	.	.	.	.	.	.	.
.	16ddK 16b-\	16b-/K	16dd\K	.	.	.	.	.
8F\J	8ccJ 8a\	8a/J	8cc\J	.	.	.	.	.
!	!	!	!LO:TX:b:i:t=Kiedynas Karzesz	!	!	!	!	!
8F\L	8ccL 8a\	8a/L	8cc\L	.	.	.	.	.
8F\	8ff 8a\	8a/	8ff\	.	.	.	.	.
8F\J	8ccJ 8a\	8a/J	8cc\J	.	.	.	.	.
=2	=2	=2	=2	=2	=2	=2	=2	=2
!LO:TX:t=P:problem:mixed beam	!	!	!	!	!	!	!	!
8FF/L	8cc#XL 8a\	8a/L	8cc#X\L	.	2.ryy	2.r	.	2.ryy
8F\	8dd 8b-\	8b-/	8dd\	.	.	.	.	.
8F\J	8ddJ 8b-\	8b-/J	8dd\J	.	.	.	.	.
8F\L	4dd 4b-\	4b-/	4dd\	.	.	.	.	.
8F\	.	.	.	.	.	.	.	.
8F\J	8r	8r	8r	.	.	.	.	.
=3	=3	=3	=3	=3	=3	=3	=3	=3
!LO:TX:t=P:problem:mixed beam	!	!	!	!	!	!	!	!
8FF/L	8.ddL 8.b-\	8.b-/L	8.dd\L	.	2.ryy	2.r	.	2.ryy
8F\	.	.	.	.	.	.	.	.
.	16eeK 16cc\	16cc/K	16ee\K	.	.	.	.	.
8F\J	8ddJ 8b-\	8b-/J	8dd\J	.	.	.	.	.
8F\L	4bb- 4dd\	8b-/L	8dd\L	.	.	.	.	.
8F\	.	8dd/	8.bb-\	.	.	.	.	.
8F\J	8dd 8b-\	8b-/J	.	.	.	.	.	.
.	.	.	16dd\Jk	.	.	.	.	.
=4	=4	=4	=4	=4	=4	=4	=4	=4
!LO:TX:t=P:problem:mixed beam	!	!	!	!	!	!	!	!
8FF/L	8ddL 8b-\	8b-/L	8dd\L	.	2.ryy	2.r	.	2.ryy
8F\	8cc 8a\	8a/	8cc\	.	.	.	.	.
8F\J	8ccJ 8a\	8a/J	8cc\J	.	.	.	.	.
4F\	4cc 4a\	4a/	4cc\	.	.	.	.	.
8r	8r	8r	8r	.	.	.	.	.
=5	=5	=5	=5	=5	=5	=5	=5	=5
!	!	!	!	!LO:DY:b:t=p.	!	!	!	!
4.C/	8.ggL 8.ee\	8.e/L	8.g/L	p	2.ryy	2.r	.	2.ryy
.	16aaK 16ff\	16f/K	16a/K	.	.	.	.	.
.	8ggJ 8ee\	8e/J	8g/J	.	.	.	.	.
4.c\	8ggL 8ee\	8e/L	8g/L	.	.	.	.	.
.	8ccc 8aa\	8a/	8cc/	.	.	.	.	.
.	8bb-J 8gg\	8g/J	8b-/J	.	.	.	.	.
=6	=6	=6	=6	=6	=6	=6	=6	=6
4.F\	8bb-L 8gg\	8g/L	8b-/L	.	2.ryy	2.r	.	2.ryy
.	8aa 8ff\	8f/	8a/	.	.	.	.	.
.	8aaJ 8ff\	8f/J	8a/J	.	.	.	.	.
8F\L	8aa 8ff\	4f/	4a/	.	.	.	.	.
8A\	8r	.	.	.	.	.	.	.
8c\J	8ccc 8aa\	8a/	8cc/	.	.	.	.	.
=7	=7	=7	=7	=7	=7	=7	=7	=7
!LO:PB:g=original	!LO:PB:g=original	!	!	!	!	!	!	!
4.C/	8.bb-L 8.gg\	8.g/L	8.b-/L	.	2.ryy	2.r	.	2.ryy
.	16cccK 16aa\	16a/K	16cc/K	.	.	.	.	.
.	8bb-J 8gg\	8g/J	8b-/J	.	.	.	.	.
4.c\	8aaL 8ff\	8.f/L	8.a/L	.	.	.	.	.
.	8bb- 8gg\	.	.	.	.	.	.	.
.	.	16g/K	16b-/K	.	.	.	.	.
.	8aaJ 8ff\	8f/J	8a/J	.	.	.	.	.
=8	=8	=8	=8	=8	=8	=8	=8	=8
8C/L	8aaL 8ff\	8f/L	8a/L	.	2.ryy	2.r	.	2.ryy
8E/	8gg 8ee\	8e/	8g/	.	.	.	.	.
8G/J	8ggJ 8ee\	8e/J	8g/J	.	.	.	.	.
4c\	4gg 4ee\	4e/	4g/	.	.	.	.	.
8r	8r	8r	8r	.	.	.	.	.
=9	=9	=9	=9	=9	=9	=9	=9	=9
!	!	!LO:LB:g=original	!LO:LB:g=original	!	!	!	!	!
4.F\	8cc\L	4.f/	4.a/	.	2.ryy	2.r	.	2.ryy
.	8ccc\	.	.	.	.	.	.	.
.	8aa\J	.	.	.	.	.	.	.
8r	8ff\L	8f/L	8a/L	.	.	.	.	.
8r	8cc\	8a/	8cc/	.	.	.	.	.
8A\	8ee-XJ 8cc 8a\	8cc/J	8ee-X/J	.	.	.	.	.
=10	=10	=10	=10	=10	=10	=10	=10	=10
4.B-\	8dd\L	8b-\L	8dd\L	.	2.ryy	2.r	.	2.ryy
.	8een\	8g\	8een\	.	.	.	.	.
.	8ff\J	8a\J	8ff\J	.	.	.	.	.
!LO:N:vis=2	!	!	!	!	!	!	!	!
4.r	8gg\L	8e/L	8gg\L	.	.	.	.	.
.	8aa\	8f/	8aa\	.	.	.	.	.
.	8bb-\J	8g/J	8bb-\J	.	.	.	.	.
=11	=11	=11	=11	=11	=11	=11	=11	=11
!LO:TX:t=P:problem:mixed beam	!	!	!	!	!	!	!	!
8C/L	4.aa 4.ff 4.cc\	16c/LL	4.aa\	.	2.ryy	2.r	.	2.ryy
.	.	16f/	.	.	.	.	.	.
8c\	.	16c/	.	.	.	.	.	.
.	.	16f/	.	.	.	.	.	.
8c\J	.	16c/	.	.	.	.	.	.
.	.	16f/JJ	.	.	.	.	.	.
*tremolo	*	*	*	*	*	*	*	*
8c\L	4.gg 4.ee 4.cc\	16c/LL	4.gg\	.	.	.	.	.
.	.	16e/	.	.	.	.	.	.
8c\	.	16c/	.	.	.	.	.	.
.	.	16e/	.	.	.	.	.	.
8c\J	.	16c/	.	.	.	.	.	.
.	.	16e/JJ	.	.	.	.	.	.
*Xtremolo	*	*	*	*	*	*	*	*
=12	=12	=12	=12	=12	=12	=12	=12	=12
4.F\	8ffL 8cc 8a\	4.f/	4.ff\	.	2.ryy	2.r	.	2.ryy
.	8ccc\	.	.	.	.	.	.	.
.	8aa\J	.	.	.	.	.	.	.
8r	8ff\L	8f/L	8a/L	.	.	.	.	.
8r	8cc\	8a/	8cc/	.	.	.	.	.
8A\	8ee-XJ 8cc 8a\	8cc/J	8ee-X/J	.	.	.	.	.
=13	=13	=13	=13	=13	=13	=13	=13	=13
!LO:LB:g=original	!LO:LB:g=original	!	!	!	!	!	!	!
4.B-\	8dd\L	8b-\L	8dd\L	.	2.ryy	2.r	.	2.ryy
.	8een\	8g\	8een\	.	.	.	.	.
.	8ff\J	8a\J	8ff\J	.	.	.	.	.
!LO:N:vis=2	!	!	!	!	!	!	!	!
4.r	8gg\L	8e/L	8gg\L	.	.	.	.	.
.	8aa\	8f/	8aa\	.	.	.	.	.
.	8bb-\J	8g/J	8bb-\J	.	.	.	.	.
=14	=14	=14	=14	=14	=14	=14	=14	=14
!LO:TX:t=P:problem:mixed beam	!	!	!	!	!	!	!	!
8C/L	4.aa 4.ff 4.cc\	16c/LL	4.aa\	.	2.ryy	2.r	.	2.ryy
.	.	16f/	.	.	.	.	.	.
8c\	.	16c/	.	.	.	.	.	.
.	.	16f/	.	.	.	.	.	.
8c\J	.	16c/	.	.	.	.	.	.
.	.	16f/JJ	.	.	.	.	.	.
*tremolo	*	*	*	*	*	*	*	*
8c\L	4.gg 4.ee 4.cc\	16c/LL	4.gg\	.	.	.	.	.
.	.	16e/	.	.	.	.	.	.
8c\	.	16c/	.	.	.	.	.	.
.	.	16e/	.	.	.	.	.	.
8c\J	.	16c/	.	.	.	.	.	.
.	.	16e/JJ	.	.	.	.	.	.
*Xtremolo	*	*	*	*	*	*	*	*
=15	=15	=15	=15	=15	=15	=15	=15	=15
8f\L	8ff\L	8f/L	8ff\L	.	2.ryy	2.r	.	2.ryy
8c\	8cc\	8cc/	8cc\	.	.	.	.	.
8c\J	8cc\J	8cc/J	8cc\J	.	.	.	.	.
8c\L	8cc\L	8cc/L	8cc\L	.	.	.	.	.
8A\	8a\	8a/	8a\	.	.	.	.	.
8A\J	8a\J	8a/J	8a\J	.	.	.	.	.
=16	=16	=16	=16	=16	=16	=16	=16	=16
!	!	!	!	!	!	!LO:N:vis=1	!	!
8F\L	8f/L	8f/L	8f/L	.	2.ryy	2.r	.	2.ryy
8F\	8f/	8f/	8f/	.	.	.	.	.
8F\J	8f/J	8f/J	8f/J	.	.	.	.	.
4F\	4f/	4f/	4.f/	.	.	.	.	.
!	!LO:TX:b:i:t=finis	!	!	!	!	!	!	!
8r	8r	8r	.	.	.	.	.	.
=17||;	=17||;	=17	=17	=17	=17	=17	=17	=17
!	!	!LO:TX:a:t=52.	!LO:TX:a:t=52.	!	!	!	!	!
4FF/	8.ccL 8.a\	2.r	2.r	.	2.ryy	8.c\	Kie-	2.ryy
.	16ddK 16b-\	.	.	.	.	16d\	-dy	.
8r	8ccJ 8a\	.	.	.	.	8c\	nas	.
4F\	8ccL 8a\	.	.	.	.	8c\L	Ka-	.
.	8dd 8b-\	.	.	.	.	8d\J	.	.
8r	8eeJ 8g\	.	.	.	.	8e\	-rzesz	.
=18	=18	=18	=18	=18	=18	=18	=18	=18
4FF/	4ff 4a\	2.r	2.r	.	2.ryy	4f\	pro-	2.ryy
8r	16eeLL 16cc\	.	.	.	.	16e\	-sie-	.
.	16ddJJ 16b-\	.	.	.	.	16d\	-my	.
!LO:N:vis=2	!	!	!	!	!	!	!	!
4.r	8cc\L	.	.	.	.	8c\L	cie-	.
.	8a\	.	.	.	.	8A\J	.	.
.	8f\J	.	.	.	.	8F/	-bie	.
=19	=19	=19	=19	=19	=19	=19	=19	=19
!	!	!	!	!	!	!	!	!
2.B-\	4cc 4a\	2.r	2.r	.	2.ryy	4d\	a-	2.ryy
.	8dd 8b-\	.	.	.	.	8e\	-byś	.
.	8qqgg/	.	.	.	.	.	.	.
.	8ffL 8dd\	.	.	.	.	8f\L	sie	.
.	8ee 8cc\	.	.	.	.	8e\J	.	.
.	8ddJ 8b-\	.	.	.	.	8d\	zmi-	.
=20	=20	=20	=20	=20	=20	=20	=20	=20
8r	4.cc 4.a 4.f\	2.r	2.r	.	2.ryy	4.cT\	-ło-	2.ryy
8c\L	.	.	.	.	.	.	.	.
8c\J	.	.	.	.	.	.	.	.
8r	4.b- 4.g 4.e\	.	.	.	.	4.B-T\	.	.
8C/L	.	.	.	.	.	.	.	.
8C/J	.	.	.	.	.	.	.	.
=21	=21	=21	=21	=21	=21	=21	=21	=21
!LO:LB:g=original	!LO:LB:g=original	!	!	!	!	!	!	!
8F\L	8aL 8f/	2.r	2.r	.	2.ryy	4A\	-wał	2.ryy
8C\	8a 8f/	.	.	.	.	.	.	.
8AA\J	8aJ 8f/	.	.	.	.	8r	.	.
!	!	!	!	!	!	!LO:N:vis=2	!	!
4FF/	8aL 8f/	.	.	.	.	4.r	.	.
.	8b- 8g/	.	.	.	.	.	.	.
8r	8b-J 8g/	.	.	.	.	.	.	.
=22	=22	=22	=22	=22	=22	=22	=22	=22
!	!	!	!	!	!	!LO:LB:g=original	!	!
4FF/	8.ccL 8.a\	2.r	2.r	.	2.ryy	8.c\	a	2.ryy
.	16ddK 16b-\	.	.	.	.	16d\	gdy	.
8r	8ccJ 8a\	.	.	.	.	8c\	prze-	.
4F\	8ccL 8a\	.	.	.	.	8c\	-sta-	.
.	8dd 8b-\	.	.	.	.	8d\	-niesz	.
8r	8eeJ 8g\	.	.	.	.	8e\	po-	.
=23	=23	=23	=23	=23	=23	=23	=23	=23
4FF/	4ff 4a\	2.r	2.r	.	2.ryy	4f\	-bu-	2.ryy
8r	16eeLL 16cc\	.	.	.	.	16e\	-dza-	.
.	16ddJJ 16b-\	.	.	.	.	16d\	-my	.
!LO:N:vis=2	!	!	!	!	!	!	!	!
4.r	8cc\L	.	.	.	.	8c\	cie	.
.	8a\	.	.	.	.	8A\	zno-	.
.	8f\J	.	.	.	.	8F/	-wu	.
=24	=24	=24	=24	=24	=24	=24	=24	=24
2.B-\	4dd 4b-\	2.r	2.r	.	2.ryy	8d\	a-	2.ryy
.	.	.	.	.	.	8d\	-bys	.
.	8ee 8cc\	.	.	.	.	8e\	nam	.
.	8qqgg/	.	.	.	.	.	.	.
.	8ffL 8dd\	.	.	.	.	8f\L	nie	.
.	8ee 8cc\	.	.	.	.	8e\J	.	.
.	8ddJ 8b-\	.	.	.	.	8d\	fol-	.
=25	=25	=25	=25	=25	=25	=25	=25	=25
8r	4.cc 4.a 4.f\	2.r	2.r	.	2.ryy	4.cT\	-go-	2.ryy
8c\L	.	.	.	.	.	.	.	.
8c\J	.	.	.	.	.	.	.	.
8r	4.b- 4.g 4.e\	.	.	.	.	4.B-T\	.	.
8C/L	.	.	.	.	.	.	.	.
8C/J	.	.	.	.	.	.	.	.
=26	=26	=26	=26	=26	=26	=26	=26	=26
!LO:TX:t=P:problem:mixed beam	!	!	!	!	!	!	!	!
8F\L	8aL 8f\	2.r	2.r	.	2.ryy	4A\	-wał	2.ryy
8AA/	8a\	.	.	.	.	.	.	.
8C/J	8cc\J	.	.	.	.	8r	.	.
!	!	!	!	!	!	!LO:N:vis=2	!	!
4F\	4ff\	.	.	.	.	4.r	.	.
8r	8r	.	.	.	.	.	.	.
=27	=27	=27	=27	=27	=27	=27	=27	=27
2.E 2.EE/	8.cc\L	2.r	2.r	.	2.ryy	8.c\	Kie-	2.ryy
.	16dd\K	.	.	.	.	16d\	-dy	.
.	8cc\J	.	.	.	.	8c\	nas	.
.	8g\L	.	.	.	.	8G/L	Ka-	.
.	8a\	.	.	.	.	8A/J	.	.
.	8b-\J	.	.	.	.	8B-/	-rzesz	.
=28	=28	=28	=28	=28	=28	=28	=28	=28
!LO:LB:g=original	!LO:LB:g=original	!	!	!	!	!LO:LB:g=original	!	!
4.F\	4a 4f\	2.r	2.r	.	2.ryy	4A\	pro-	2.ryy
.	8b- 8g\	.	.	.	.	8B-\	-sie-	.
4.A\	4cc 4a\	.	.	.	.	4c\	-my	.
.	8a 8f\	.	.	.	.	8A\	cie	.
=29	=29	=29	=29	=29	=29	=29	=29	=29
4.B-\	4dd 4b-\	2.r	2.r	.	2.ryy	4d\	a-	2.ryy
.	8b-\	.	.	.	.	8B-\	-byś	.
4.d\	4g/	.	.	.	.	4G/	sie	.
.	8f/	.	.	.	.	8F/	zmi-	.
=30	=30	=30	=30	=30	=30	=30	=30	=30
8C\L	4.f 4.c 4.A/	2.r	2.r	.	2.ryy	4.FT/	-ło-	2.ryy
8C\	.	.	.	.	.	.	.	.
8C\J	.	.	.	.	.	.	.	.
4CC/	8e 8c 8G/	.	.	.	.	4E/	-wał	.
.	8r	.	.	.	.	.	.	.
8r	8r	.	.	.	.	8r	.	.
=31	=31	=31	=31	=31	=31	=31	=31	=31
2.E 2.EE\	8.cc\L	2.r	2.r	.	2.ryy	8.c\	a	2.ryy
.	16dd\K	.	.	.	.	16d\	gdy	.
.	8cc\J	.	.	.	.	8c\	prze-	.
.	8g\L	.	.	.	.	8G/	-sta-	.
.	8a\	.	.	.	.	8A/	-niesz	.
.	8b-\J	.	.	.	.	8B-/	po-	.
=32	=32	=32	=32	=32	=32	=32	=32	=32
4.F\	8a\L	2.r	2.r	.	2.ryy	8A\	-bu-	2.ryy
.	8a\	.	.	.	.	8A\	-dza-	.
.	8b-\J	.	.	.	.	8B-\	-my	.
4.A\	8cc\L	.	.	.	.	8c\	cię	.
.	8dd\	.	.	.	.	8d\	zno-	.
.	8een\J	.	.	.	.	8e-X\	-wu	.
=33	=33	=33	=33	=33	=33	=33	=33	=33
4.B-\	8dd\L	2.r	2.r	.	2.ryy	8d\	a-	2.ryy
.	8een\	.	.	.	.	8en\	-bys	.
.	8ff\J	.	.	.	.	8f\	na(m)	.
4.B-\	8ggL 8ee\	.	.	.	.	8g\L	nie	.
.	8aa 8ff\	.	.	.	.	8a\J	.	.
.	8bb-J 8gg\	.	.	.	.	8b-\	fol-	.
=34	=34	=34	=34	=34	=34	=34	=34	=34
!	!	!	!	!	!	!LO:LB:g=original	!	!
8c\L	4.aa 4.ff\	2.r	2.r	.	2.ryy	4.at\	-go-	2.ryy
8c\	.	.	.	.	.	.	.	.
8c\J	.	.	.	.	.	.	.	.
8C/L	4.gg 4.ee\	.	.	.	.	4.gT\	.	.
8C/	.	.	.	.	.	.	.	.
8C/J	.	.	.	.	.	.	.	.
=35	=35	=35	=35	=35	=35	=35	=35	=35
!LO:TX:t=P:problem:mixed beam	!LO:TX:t=P:problem:mixed beam	!	!	!	!	!	!	!
!LO:LB:g=original	!LO:LB:g=original	!	!	!	!	!	!	!
8F\L	8ff\L	2.r	2.r	.	2.ryy	4f\	-wał	2.ryy
8FF/	8f/	.	.	.	.	.	.	.
8FF/J	8f/J	.	.	.	.	8r	.	.
!	!	!	!	!	!	!LO:N:vis=2	!	!
4FF/	4f/	.	.	.	.	4.r	.	.
8r	8r	.	.	.	.	.	.	.
=36	=36	=36	=36	=36	=36	=36	=36	=36
!LO:TX:t=P:problem:t. 36-44 zapisane powtórką	!LO:TX:t=P:problem:t. 36-44 zapisane powtórką	!	!	!	!	!LO:TX:t=P:problem:takty 36-44 w T i org zapisane repetycją; \npauzy w Vln 1 rozpisane	!	!
2.E 2.EE/	8.cc\L	2.r	2.r	.	2.ryy	8.c\	Kie-	2.ryy
.	16dd\K	.	.	.	.	16d\	-dy	.
.	8cc\J	.	.	.	.	8c\	nas	.
.	8g\L	.	.	.	.	8G/L	Ka-	.
.	8a\	.	.	.	.	8A/J	.	.
.	8b-\J	.	.	.	.	8B-/	-rzesz	.
=37	=37	=37	=37	=37	=37	=37	=37	=37
!LO:LB:g=original	!LO:LB:g=original	!	!	!	!	!LO:LB:g=original	!	!
4.F\	4a 4f\	2.r	2.r	.	2.ryy	4A\	pro-	2.ryy
.	8b- 8g\	.	.	.	.	8B-\	-sie-	.
4.A\	4cc 4a\	.	.	.	.	4c\	-my	.
.	8a 8f\	.	.	.	.	8A\	cie	.
=38	=38	=38	=38	=38	=38	=38	=38	=38
4.B-\	4dd 4b-\	2.r	2.r	.	2.ryy	4d\	a-	2.ryy
.	8b-\	.	.	.	.	8B-\	-byś	.
4.d\	4g/	.	.	.	.	4G/	sie	.
.	8f/	.	.	.	.	8F/	zmi-	.
=39	=39	=39	=39	=39	=39	=39	=39	=39
8C\L	4.f 4.c 4.A/	2.r	2.r	.	2.ryy	4.FT/	-ło-	2.ryy
8C\	.	.	.	.	.	.	.	.
8C\J	.	.	.	.	.	.	.	.
4CC/	8e 8c 8G/	.	.	.	.	4E/	-wał	.
.	8r	.	.	.	.	.	.	.
8r	8r	.	.	.	.	8r	.	.
=40	=40	=40	=40	=40	=40	=40	=40	=40
2.E 2.EE\	8.cc\L	2.r	2.r	.	2.ryy	8.c\	a	2.ryy
.	16dd\K	.	.	.	.	16d\	gdy	.
.	8cc\J	.	.	.	.	8c\	prze-	.
.	8g\L	.	.	.	.	8G/	-sta-	.
.	8a\	.	.	.	.	8A/	-niesz	.
.	8b-\J	.	.	.	.	8B-/	po-	.
=41	=41	=41	=41	=41	=41	=41	=41	=41
4.F\	8a\L	2.r	2.r	.	2.ryy	8A\	-bu-	2.ryy
.	8a\	.	.	.	.	8A\	-dza-	.
.	8b-\J	.	.	.	.	8B-\	-my	.
4.A\	8cc\L	.	.	.	.	8c\	cię	.
.	8dd\	.	.	.	.	8d\	zno-	.
.	8een\J	.	.	.	.	8e-X\	-wu	.
=42	=42	=42	=42	=42	=42	=42	=42	=42
4.B-\	8dd\L	2.r	2.r	.	2.ryy	8d\	a-	2.ryy
.	8een\	.	.	.	.	8en\	-bys	.
.	8ff\J	.	.	.	.	8f\	na(m)	.
4.B-\	8ggL 8ee\	.	.	.	.	8g\L	nie	.
.	8aa 8ff\	.	.	.	.	8a\J	.	.
.	8bb-J 8gg\	.	.	.	.	8b-\	fol-	.
=43	=43	=43	=43	=43	=43	=43	=43	=43
!	!	!	!	!	!	!LO:LB:g=original	!	!
8c\L	4.aa 4.ff\	2.r	2.r	.	2.ryy	4.at\	-go-	2.ryy
8c\	.	.	.	.	.	.	.	.
8c\J	.	.	.	.	.	.	.	.
8C/L	4.gg 4.ee\	.	.	.	.	4.gT\	.	.
8C/	.	.	.	.	.	.	.	.
8C/J	.	.	.	.	.	.	.	.
=44	=44	=44	=44	=44	=44	=44	=44	=44
!LO:TX:t=P:problem:mixed beam	!LO:TX:t=P:problem:mixed beam	!	!	!	!	!	!	!
!LO:LB:g=original	!LO:LB:g=original	!	!	!	!	!	!	!
8F\L	8ff\L	2.r	2.r	.	2.ryy	4f\	-wał	2.ryy
8FF/	8f/	.	.	.	.	.	.	.
8FF/J	8f/J	.	.	.	.	8r	.	.
!	!	!	!	!	!	!LO:N:vis=2	!	!
4FF/	4f/	.	.	.	.	4.r	.	.
8r	8r	.	.	.	.	.	.	.
=45	=45	=45	=45	=45	=45	=45	=45	=45
4F\	8r	2.r	2.r	.	2.ryy	8a\L	Kie-	2.ryy
.	8ccL 8a\	.	.	.	.	16g\L	-dy	.
.	.	.	.	.	.	16f\JJ	.	.
8r	8ccJ 8a\	.	.	.	.	16e\LL	nas	.
.	.	.	.	.	.	16d\JJ	.	.
4E\	8r	.	.	.	.	32g\LLL	Ka-	.
.	.	.	.	.	.	32a\	.	.
.	.	.	.	.	.	32g\	.	.
.	.	.	.	.	.	32f\JJJ	.	.
.	8ccL 8g\	.	.	.	.	32e\LLL	.	.
.	.	.	.	.	.	32f\	.	.
.	.	.	.	.	.	32e\	.	.
.	.	.	.	.	.	32d\JJJ	.	.
8r	8ccJ 8g\	.	.	.	.	8Bn\	-rzesz	.
=46	=46	=46	=46	=46	=46	=46	=46	=46
4D\	4bn 4g 4f\	2.r	2.r	.	2.ryy	8f\	pro-	2.ryy
.	.	.	.	.	.	32d\LLL	-sie-	.
.	.	.	.	.	.	32e\	.	.
.	.	.	.	.	.	32d\	.	.
.	.	.	.	.	.	32c\JJJ	.	.
8r	8r	.	.	.	.	32Bn\LLL	-my	.
.	.	.	.	.	.	32c\	.	.
.	.	.	.	.	.	32d\	cie-	.
.	.	.	.	.	.	32e\JJJ	.	.
4GG/	8r	.	.	.	.	8f\	-bie	.
.	8dL 8Bny/	.	.	.	.	8r	.	.
8r	8fJ 8d/	.	.	.	.	8r	.	.
=47	=47	=47	=47	=47	=47	=47	=47	=47
*	*	*	*	*	*	*	*ij	*
4G\	4e 4c/	2.r	2.r	.	2.ryy	8g\	pro-	2.ryy
.	.	.	.	.	.	32e\LLL	-sie-	.
.	.	.	.	.	.	32f\	.	.
.	.	.	.	.	.	32e\	.	.
.	.	.	.	.	.	32d\JJJ	.	.
8r	8r	.	.	.	.	32c\LLL	-my	.
.	.	.	.	.	.	32d\	.	.
.	.	.	.	.	.	32e\	cie-	.
.	.	.	.	.	.	32f\JJJ	.	.
4GG/	8r	.	.	.	.	8g\	-bie	.
*	*	*	*	*	*	*	*Xij	*
.	8eL 8c/	.	.	.	.	8r	.	.
8r	8gJ 8e/	.	.	.	.	8r	.	.
=48	=48	=48	=48	=48	=48	=48	=48	=48
4F\	4dd 4a\	2.r	2.r	.	2.ryy	8a\	pro-	2.ryy
.	.	.	.	.	.	32d\LLL	-sie-	.
.	.	.	.	.	.	32c#X\	.	.
.	.	.	.	.	.	32d\	.	.
.	.	.	.	.	.	32e\JJJ	.	.
!	!	!	!	!	!	!LO:LB:g=original	!	!
8r	8r	.	.	.	.	32f\LLL	-my	.
.	.	.	.	.	.	32e\	.	.
.	.	.	.	.	.	32f\	.	.
.	.	.	.	.	.	32g\JJJ	.	.
!LO:N:vis=2	!LO:N:vis=2	!	!	!	!	!	!	!
4.r	4.r	.	.	.	.	8a\L	cie-	.
.	.	.	.	.	.	8f\J	.	.
.	.	.	.	.	.	8d\	-bie	.
=49	=49	=49	=49	=49	=49	=49	=49	=49
4G\	4cc 4e/	2.r	2.r	.	2.ryy	8G/	a-	2.ryy
.	.	.	.	.	.	8g\	-byś	.
8r	8r	.	.	.	.	8g\	sie	.
!	!LO:SIC:v:n=1:s=4bn	!	!	!	!	!	!	!
4GG/	4b- 4d/	.	.	.	.	8g\L	zmi-	.
.	.	.	.	.	.	8f#X\	.	.
8r	8r	.	.	.	.	8fnT\J	-ło-	.
=50	=50	=50	=50	=50	=50	=50	=50	=50
!LO:TX:t=P:problem:mixed beam	!	!	!	!	!	!	!	!
8c\L	8ccL 8e/	2.r	2.r	.	2.ryy	4e\	-wał	2.ryy
8C/	8c/	.	.	.	.	.	.	.
8C/J	8c/J	.	.	.	.	8r	.	.
!	!	!	!	!	!	!LO:N:vis=2	!	!
4C/	4c/	.	.	.	.	4.r	.	.
8r	8r	.	.	.	.	.	.	.
=51	=51	=51	=51	=51	=51	=51	=51	=51
!LO:TX:t=P:problem:mixed beam	!	!	!	!	!	!	!	!
8GG/L	8g 8d 8B-/	2.r	2.r	.	2.ryy	8G/	a	2.ryy
8G\	8r	.	.	.	.	32G/LLL	gdy	.
.	.	.	.	.	.	32A/	.	.
.	.	.	.	.	.	32Bn/	.	.
.	.	.	.	.	.	32c/JJJ	.	.
8G\J	8r	.	.	.	.	32d\LLL	prze-	.
.	.	.	.	.	.	32e\	.	.
.	.	.	.	.	.	32f\	.	.
.	.	.	.	.	.	32g\JJJ	.	.
8G\L	8r	.	.	.	.	8f\	-sta-	.
8G\	8r	.	.	.	.	8d\	-niesz	.
8G\J	32gg\LLL	.	.	.	.	8r	.	.
.	32aa\	.	.	.	.	.	.	.
.	32bb-\	.	.	.	.	.	.	.
.	32ccc\JJJ	.	.	.	.	.	.	.
=52	=52	=52	=52	=52	=52	=52	=52	=52
4G\	8ddd\	2.r	2.r	.	2.ryy	2.r	.	2.ryy
.	32ddd\LLL	.	.	.	.	.	.	.
.	32eee\	.	.	.	.	.	.	.
.	32ddd\	.	.	.	.	.	.	.
.	32ccc\JJJ	.	.	.	.	.	.	.
!	!LO:SIC:v:s=32bb\LLL	!	!	!	!	!	!	!
8r	32bb-\LLL	.	.	.	.	.	.	.
.	32ccc\	.	.	.	.	.	.	.
!	!LO:SIC:v:s=32bb\	!	!	!	!	!	!	!
.	32bb-\	.	.	.	.	.	.	.
.	32aa\JJJ	.	.	.	.	.	.	.
!LO:N:vis=2	!	!	!	!	!	!	!	!
4.r	32gg\LLL	.	.	.	.	.	.	.
.	32aa\	.	.	.	.	.	.	.
.	32gg\	.	.	.	.	.	.	.
.	32ff\JJJ	.	.	.	.	.	.	.
.	32ee\LLL	.	.	.	.	.	.	.
.	32ff\	.	.	.	.	.	.	.
.	32ee\	.	.	.	.	.	.	.
.	32dd\JJJ	.	.	.	.	.	.	.
.	32cc\LLL	.	.	.	.	.	.	.
!	!LO:SIC:v:s=32b\	!	!	!	!	!	!	!
.	32b-\	.	.	.	.	.	.	.
.	32a\	.	.	.	.	.	.	.
.	32g\JJJ	.	.	.	.	.	.	.
=53	=53	=53	=53	=53	=53	=53	=53	=53
*	*	*	*	*	*	*	*ij	*
!LO:TX:t=P:problem:mixed beam	!	!	!	!	!	!	!	!
8GG/L	8cc 8g 8e/	2.r	2.r	.	2.ryy	8G/	a	2.ryy
8G\	8r	.	.	.	.	16G/LL	gdy	.
.	.	.	.	.	.	32A/L	.	.
!	!	!	!	!	!	!LO:SIC:v:s=32B/JJJ	!	!
.	.	.	.	.	.	32B-/JJJ	.	.
8G\J	8r	.	.	.	.	32c\LLL	prze-	.
.	.	.	.	.	.	32d\	.	.
.	.	.	.	.	.	32e\	.	.
.	.	.	.	.	.	32f\JJJ	.	.
8G\L	8r	.	.	.	.	8g\	-sta-	.
8G\	8r	.	.	.	.	8e\	-niesz	.
8G\J	32ccc\LLL	.	.	.	.	8r	.	.
!	!LO:SIC:v:s=32bb\	!	!	!	!	!	!	!
.	32bb-\	.	.	.	.	.	.	.
.	32ccc\	.	.	.	.	.	.	.
.	32ddd\JJJ	.	.	.	.	.	.	.
=54	=54	=54	=54	=54	=54	=54	=54	=54
4G\	8eee\	2.r	2.r	.	2.ryy	2.r	.	2.ryy
.	32eee\LLL	.	.	.	.	.	.	.
.	32fff\	.	.	.	.	.	.	.
.	32eee\	.	.	.	.	.	.	.
.	32ddd\JJJ	.	.	.	.	.	.	.
8r	32ccc\LLL	.	.	.	.	.	.	.
.	32ddd\	.	.	.	.	.	.	.
.	32ccc\	.	.	.	.	.	.	.
!	!LO:SIC:v:s=32bb\JJJ	!	!	!	!	!	!	!
.	32bb-\JJJ	.	.	.	.	.	.	.
!LO:LB:g=original	!LO:LB:g=original	!	!	!	!	!	!	!
!LO:N:vis=2	!	!	!	!	!	!	!	!
4.r	32aa\LLL	.	.	.	.	.	.	.
.	32bb-\	.	.	.	.	.	.	.
.	32aa\	.	.	.	.	.	.	.
.	32gg\JJJ	.	.	.	.	.	.	.
.	32ff\LLL	.	.	.	.	.	.	.
.	32gg\	.	.	.	.	.	.	.
.	32ff\	.	.	.	.	.	.	.
.	32ee\JJJ	.	.	.	.	.	.	.
.	32dd\LLL	.	.	.	.	.	.	.
.	32cc\	.	.	.	.	.	.	.
!	!LO:SIC:v:s=32b\	!	!	!	!	!	!	!
.	32b-\	.	.	.	.	.	.	.
.	32cc\JJJ	.	.	.	.	.	.	.
=55	=55	=55	=55	=55	=55	=55	=55	=55
!	!	!	!	!	!	!LO:LB:g=original	!	!
!	!LO:SIC:v:n=2:s=8b\	!	!	!	!	!	!	!
8FF/	8dd 8b-\	2.r	2.r	.	2.ryy	8d\	a	2.ryy
8r	8r	.	.	.	.	32d\LLL	gdy	.
.	.	.	.	.	.	32c#X\	.	.
.	.	.	.	.	.	32d\	.	.
.	.	.	.	.	.	32e\JJJ	.	.
8r	8r	.	.	.	.	32f\LLL	prze-	.
.	.	.	.	.	.	32e\	.	.
.	.	.	.	.	.	32f\	.	.
.	.	.	.	.	.	32g\JJJ	.	.
8r	8r	.	.	.	.	8a\	-sta-	.
8r	8r	.	.	.	.	8f\	-niesz	.
*	*	*	*	*	*	*	*Xij	*
8F\	16aaLL 16ff\	.	.	.	.	8r	.	.
.	16ggJJ 16ee\	.	.	.	.	.	.	.
=56	=56	=56	=56	=56	=56	=56	=56	=56
4F\	4ff 4dd\	2.r	2.r	.	2.ryy	8d\	po-	2.ryy
.	.	.	.	.	.	32d\LLL	-bu-	.
.	.	.	.	.	.	32c#X\	.	.
.	.	.	.	.	.	32d\	.	.
.	.	.	.	.	.	32e\JJJ	.	.
8r	8r	.	.	.	.	32f\LLL	-dza-	.
.	.	.	.	.	.	32e\	.	.
.	.	.	.	.	.	32f\	-my	.
.	.	.	.	.	.	32g\JJJ	.	.
!LO:N:vis=2	!LO:N:vis=2	!	!	!	!	!	!	!
4.r	4.r	.	.	.	.	8a\	cie	.
.	.	.	.	.	.	8f\	zno-	.
.	.	.	.	.	.	8d\	-wu	.
=57	=57	=57	=57	=57	=57	=57	=57	=57
8c\	8ee\	2.r	2.r	.	2.ryy	8G/	a-	2.ryy
8r	8r	.	.	.	.	8g\	-bys	.
8r	8r	.	.	.	.	8g\	na(m)	.
8G\L	8b-\L	.	.	.	.	8g\L	nie	.
8A\	8cc\	.	.	.	.	8f#X\	.	.
!LO:SIC:v:s=8B\J	!	!	!	!	!	!	!	!
8B-\J	8dd\J	.	.	.	.	8fn\J	fol-	.
=58	=58	=58	=58	=58	=58	=58	=58	=58
*tremolo	*	*	*	*	*	*	*	*
8G\L	16g/LL	2.r	2.r	.	2.ryy	4.et\	-go-	2.ryy
.	16cc/	.	.	.	.	.	.	.
8G\	16g/	.	.	.	.	.	.	.
.	16cc/	.	.	.	.	.	.	.
8G\J	16g/	.	.	.	.	.	.	.
.	16cc/JJ	.	.	.	.	.	.	.
8GG/L	16f/LL	.	.	.	.	4.dT\	.	.
.	16bn/	.	.	.	.	.	.	.
8GG/	16f/	.	.	.	.	.	.	.
.	16b/	.	.	.	.	.	.	.
8GG/J	16f/	.	.	.	.	.	.	.
.	16b/JJ	.	.	.	.	.	.	.
*Xtremolo	*	*	*	*	*	*	*	*
=59	=59	=59	=59	=59	=59	=59	=59	=59
!LO:LB:g=original	!LO:LB:g=original	!	!	!	!	!	!	!
!LO:N:vis=8	!LO:N:vis=8	!	!	!	!	!	!	!
8C\	8cc\	2.r	2.r	.	2.ryy	4c\	-wał	2.ryy
16C\LL	16c/LL	.	.	.	.	.	.	.
32D\L	32d/L	.	.	.	.	.	.	.
32E\JJJ	32e/JJJ	.	.	.	.	.	.	.
32F\LLL	32f/LLL	.	.	.	.	8r	.	.
32G\	32g/	.	.	.	.	.	.	.
32A\	32a/	.	.	.	.	.	.	.
!LO:SIC:v:s=32B\JJJ	!LO:SIC:v:s=32b/JJJ	!	!	!	!	!	!	!
32B-\JJJ	32b-/JJJ	.	.	.	.	.	.	.
!LO:TX:t=P:problem:mixed beam	!LO:TX:t=P:problem:mixed beam	!	!	!	!	!	!	!
!	!	!	!	!	!	!LO:N:vis=2	!	!
8c\L	8cc\L	.	.	.	.	4.r	.	.
8C/J	8c/J	.	.	.	.	.	.	.
8ryy	8ryy	.	.	.	.	.	.	.
=60	=60	=60	=60	=60	=60	=60	=60	=60
!LO:TX:t=P:problem:takty 60-68 zapisane repetycją	!LO:TX:t=P:problem:takty 60-68 zapisane repetycją	!	!	!	!	!	!	!
!LO:TX:t=P:problem:mixed beam	!	!	!	!	!	!	!	!
8GG/L	8g 8d 8B-/	2.r	2.r	.	2.ryy	8G/	a	2.ryy
8G\	8r	.	.	.	.	32G/LLL	gdy	.
.	.	.	.	.	.	32A/	.	.
.	.	.	.	.	.	32Bn/	.	.
.	.	.	.	.	.	32c/JJJ	.	.
!	!	!	!	!	!	!LO:LB:g=original	!	!
8G\J	8r	.	.	.	.	32d\LLL	prze-	.
.	.	.	.	.	.	32e\	.	.
.	.	.	.	.	.	32f\	.	.
.	.	.	.	.	.	32g\JJJ	.	.
8G\L	8r	.	.	.	.	8f\	-sta-	.
8G\	8r	.	.	.	.	8d\	-niesz	.
8G\J	32gg\LLL	.	.	.	.	8r	.	.
.	32aa\	.	.	.	.	.	.	.
!	!LO:SIC:v:s=32bb\	!	!	!	!	!	!	!
.	32bb-\	.	.	.	.	.	.	.
.	32ccc\JJJ	.	.	.	.	.	.	.
=61	=61	=61	=61	=61	=61	=61	=61	=61
4G\	8ddd\	2.r	2.r	.	2.ryy	2.r	.	2.ryy
.	32ddd\LLL	.	.	.	.	.	.	.
.	32eee\	.	.	.	.	.	.	.
.	32ddd\	.	.	.	.	.	.	.
.	32ccc\JJJ	.	.	.	.	.	.	.
!	!LO:SIC:v:s=32bb\LLL	!	!	!	!	!	!	!
8r	32bb-\LLL	.	.	.	.	.	.	.
.	32ccc\	.	.	.	.	.	.	.
!	!LO:SIC:v:s=32bb\	!	!	!	!	!	!	!
.	32bb-\	.	.	.	.	.	.	.
.	32aa\JJJ	.	.	.	.	.	.	.
!LO:N:vis=2	!	!	!	!	!	!	!	!
4.r	32gg\LLL	.	.	.	.	.	.	.
.	32aa\	.	.	.	.	.	.	.
.	32gg\	.	.	.	.	.	.	.
.	32ff\JJJ	.	.	.	.	.	.	.
.	32ee\LLL	.	.	.	.	.	.	.
.	32ff\	.	.	.	.	.	.	.
.	32ee\	.	.	.	.	.	.	.
.	32dd\JJJ	.	.	.	.	.	.	.
.	32cc\LLL	.	.	.	.	.	.	.
!	!LO:SIC:v:s=32b\	!	!	!	!	!	!	!
.	32b-\	.	.	.	.	.	.	.
.	32a\	.	.	.	.	.	.	.
.	32g\JJJ	.	.	.	.	.	.	.
=62	=62	=62	=62	=62	=62	=62	=62	=62
*	*	*	*	*	*	*	*ij	*
!LO:TX:t=P:problem:mixed beam	!	!	!	!	!	!	!	!
8GG/L	8cc 8g 8e/	2.r	2.r	.	2.ryy	8G/	a	2.ryy
8G\	8r	.	.	.	.	16G/LL	gdy	.
.	.	.	.	.	.	32A/L	.	.
!	!	!	!	!	!	!LO:SIC:v:s=32B/JJJ	!	!
.	.	.	.	.	.	32B-/JJJ	.	.
8G\J	8r	.	.	.	.	32c\LLL	prze-	.
.	.	.	.	.	.	32d\	.	.
.	.	.	.	.	.	32e\	.	.
.	.	.	.	.	.	32f\JJJ	.	.
8G\L	8r	.	.	.	.	8g\	-sta-	.
8G\	8r	.	.	.	.	8e\	-niesz	.
8G\J	32ccc\LLL	.	.	.	.	8r	.	.
!	!LO:SIC:v:s=32bb\	!	!	!	!	!	!	!
.	32bb-\	.	.	.	.	.	.	.
.	32ccc\	.	.	.	.	.	.	.
.	32ddd\JJJ	.	.	.	.	.	.	.
=63	=63	=63	=63	=63	=63	=63	=63	=63
4G\	8eee\	2.r	2.r	.	2.ryy	2.r	.	2.ryy
.	32eee\LLL	.	.	.	.	.	.	.
.	32fff\	.	.	.	.	.	.	.
.	32eee\	.	.	.	.	.	.	.
.	32ddd\JJJ	.	.	.	.	.	.	.
8r	32ccc\LLL	.	.	.	.	.	.	.
.	32ddd\	.	.	.	.	.	.	.
.	32ccc\	.	.	.	.	.	.	.
!	!LO:SIC:v:s=32bb\	!	!	!	!	!	!	!
.	32bb-\JJJ	.	.	.	.	.	.	.
!LO:LB:g=original	!LO:LB:g=original	!	!	!	!	!	!	!
!LO:N:vis=2	!	!	!	!	!	!	!	!
4.r	32aa\LLL	.	.	.	.	.	.	.
.	32bb-\	.	.	.	.	.	.	.
.	32aa\	.	.	.	.	.	.	.
.	32gg\JJJ	.	.	.	.	.	.	.
.	32ff\LLL	.	.	.	.	.	.	.
.	32gg\	.	.	.	.	.	.	.
.	32ff\	.	.	.	.	.	.	.
.	32ee\JJJ	.	.	.	.	.	.	.
.	32dd\LLL	.	.	.	.	.	.	.
.	32cc\	.	.	.	.	.	.	.
!	!LO:SIC:v:s=32b\	!	!	!	!	!	!	!
.	32b-\	.	.	.	.	.	.	.
.	32cc\JJJ	.	.	.	.	.	.	.
=64	=64	=64	=64	=64	=64	=64	=64	=64
!	!LO:SIC:v:n=2:s=8b\	!	!	!	!	!	!	!
8FF/	8dd 8b-\	2.r	2.r	.	2.ryy	8d\	a	2.ryy
8r	8r	.	.	.	.	32d\LLL	gdy	.
.	.	.	.	.	.	32c#X\	.	.
.	.	.	.	.	.	32d\	.	.
.	.	.	.	.	.	32e\JJJ	.	.
8r	8r	.	.	.	.	32f\LLL	prze-	.
.	.	.	.	.	.	32e\	.	.
.	.	.	.	.	.	32f\	.	.
.	.	.	.	.	.	32g\JJJ	.	.
8r	8r	.	.	.	.	8a\	-sta-	.
8r	8r	.	.	.	.	8f\	-niesz	.
*	*	*	*	*	*	*	*Xij	*
8F\	16aaLL 16ff\	.	.	.	.	8r	.	.
.	16ggJJ 16ee\	.	.	.	.	.	.	.
=65	=65	=65	=65	=65	=65	=65	=65	=65
4F\	4ff 4dd\	2.r	2.r	.	2.ryy	8d\	po-	2.ryy
.	.	.	.	.	.	32d\LLL	-bu-	.
.	.	.	.	.	.	32c#X\	.	.
.	.	.	.	.	.	32d\	.	.
.	.	.	.	.	.	32e\JJJ	.	.
8r	8r	.	.	.	.	32f\LLL	-dza-	.
.	.	.	.	.	.	32e\	.	.
.	.	.	.	.	.	32f\	-my	.
.	.	.	.	.	.	32g\JJJ	.	.
!LO:N:vis=2	!LO:N:vis=2	!	!	!	!	!	!	!
4.r	4.r	.	.	.	.	8a\	cie	.
.	.	.	.	.	.	8f\	zno-	.
.	.	.	.	.	.	8d\	-wu	.
=66	=66	=66	=66	=66	=66	=66	=66	=66
!	!	!	!	!	!	!LO:PB:g=original	!	!
8c\	8ee\	2.r	2.r	.	2.ryy	8G/	a-	2.ryy
8r	8r	.	.	.	.	8g\	-bys	.
8r	8r	.	.	.	.	8g\	na(m)	.
8G\L	8b-\L	.	.	.	.	8g\L	nie	.
8A\	8cc\	.	.	.	.	8f#X\	.	.
8B-\J	8dd\J	.	.	.	.	8fn\J	fol-	.
=67	=67	=67	=67	=67	=67	=67	=67	=67
*tremolo	*	*	*	*	*	*	*	*
8G\L	16g/LL	2.r	2.r	.	2.ryy	4.et\	-go-	2.ryy
.	16cc/	.	.	.	.	.	.	.
8G\	16g/	.	.	.	.	.	.	.
.	16cc/	.	.	.	.	.	.	.
8G\J	16g/	.	.	.	.	.	.	.
.	16cc/JJ	.	.	.	.	.	.	.
8GG/L	16f/LL	.	.	.	.	4.dT\	.	.
.	16bn/	.	.	.	.	.	.	.
8GG/	16f/	.	.	.	.	.	.	.
.	16b/	.	.	.	.	.	.	.
8GG/J	16f/	.	.	.	.	.	.	.
.	16b/JJ	.	.	.	.	.	.	.
*Xtremolo	*	*	*	*	*	*	*	*
=68	=68	=68	=68	=68	=68	=68	=68	=68
!LO:LB:g=original	!LO:LB:g=original	!	!	!	!	!	!	!
!LO:N:vis=8	!LO:N:vis=8	!	!	!	!	!	!	!
8C\	8cc\	2.r	2.r	.	2.ryy	4c\	-wał	2.ryy
16C\LL	16c/LL	.	.	.	.	.	.	.
32D\L	32d/L	.	.	.	.	.	.	.
32E\JJJ	32e/JJJ	.	.	.	.	.	.	.
32F\LLL	32f/LLL	.	.	.	.	8r	.	.
32G\	32g/	.	.	.	.	.	.	.
32A\	32a/	.	.	.	.	.	.	.
!LO:SIC:v:s=32B\JJJ	!LO:SIC:v:s=32b/JJJ	!	!	!	!	!	!	!
32B-\JJJ	32b-/JJJ	.	.	.	.	.	.	.
!LO:TX:t=P:problem:mixed beam	!LO:TX:t=P:problem:mixed beam	!	!	!	!	!LO:N:vis=2	!	!
8c\L	8cc\L	.	.	.	.	4.r	.	.
8C/J	8c/J	.	.	.	.	.	.	.
8ryy	8ryy	.	.	.	.	.	.	.
=69	=69	=69	=69	=69	=69	=69	=69	=69
!	!	!LO:LB:g=original	!LO:PB:g=original	!	!	!	!	!
4G 4GG\	8r	16d/LL	8.gg\L	.	2.ryy	2.r	.	2.ryy
.	.	16f/	.	.	.	.	.	.
.	8bnL 8g 8f 8d/	16d/	.	.	.	.	.	.
.	.	16f/	16aa\K	.	.	.	.	.
8r	8b 8g 8f 8d/	16d/	8gg\J	.	.	.	.	.
.	.	16f/JJ	.	.	.	.	.	.
*	*tremolo	*rep	*	*	*	*	*	*
!LO:N:vis=2	!	!	!	!	!	!	!	!
4.r	8b 8g 8f 8d/	16d/LL	8gg\L	.	.	.	.	.
.	.	16f/	.	.	.	.	.	.
.	8b 8g 8f 8d/	16d/	8aa\	.	.	.	.	.
.	.	16f/	.	.	.	.	.	.
!	!	!	!LO:SIC:v:s=8bb\J	!	!	!	!	!
.	8bJ 8g 8f 8d/	16d/	8bb-\J	.	.	.	.	.
.	.	16f/JJ	.	.	.	.	.	.
*	*Xtremolo	*Xrep	*	*	*	*	*	*
=70	=70	=70	=70	=70	=70	=70	=70	=70
4C 4CC/	8r	16e/LL	8ccc\L	.	2.ryy	2.r	.	2.ryy
.	.	16g/	.	.	.	.	.	.
!	!	!	!LO:SIC:v:s=8bb\	!	!	!	!	!
.	8ccL 8g 8e/	16e/	8bb-\	.	.	.	.	.
.	.	16g/	.	.	.	.	.	.
8r	8ccJ 8g 8e/	16e/	8aa\J	.	.	.	.	.
.	.	16g/JJ	.	.	.	.	.	.
*	*tremolo	*rep	*	*	*	*	*	*
!LO:N:vis=2	!	!	!	!	!	!	!	!
4.r	8ccL 8g 8e/	16e/LL	4.gg\	.	.	.	.	.
.	.	16g/	.	.	.	.	.	.
.	8cc 8g 8e/	16e/	.	.	.	.	.	.
.	.	16g/	.	.	.	.	.	.
.	8ccJ 8g 8e/	16e/	.	.	.	.	.	.
.	.	16g/JJ	.	.	.	.	.	.
*	*Xtremolo	*Xrep	*	*	*	*	*	*
=71	=71	=71	=71	=71	=71	=71	=71	=71
4G 4GG/	8r	16d/LL	8.gg\L	.	2.ryy	2.r	.	2.ryy
.	.	16f/	.	.	.	.	.	.
.	8bnL 8f 8d/	16d/	.	.	.	.	.	.
.	.	16f/	16aa\K	.	.	.	.	.
8r	8bJ 8f 8d/	16d/	8gg\J	.	.	.	.	.
.	.	16f/JJ	.	.	.	.	.	.
*	*tremolo	*rep	*	*	*	*	*	*
!LO:N:vis=2	!	!	!	!	!	!	!	!
4.r	8bL 8f 8d/	16d/LL	8gg\L	.	.	.	.	.
.	.	16f/	.	.	.	.	.	.
.	8b 8f 8d/	16d/	8aa\	.	.	.	.	.
.	.	16f/	.	.	.	.	.	.
!	!	!	!LO:SIC:v:s=8bb\J	!	!	!	!	!
.	8bJ 8f 8d/	16d/	8bb-\J	.	.	.	.	.
.	.	16f/JJ	.	.	.	.	.	.
*	*Xtremolo	*Xrep	*	*	*	*	*	*
=72	=72	=72	=72	=72	=72	=72	=72	=72
4C 4CC/	8r	16e/LL	8ccc\L	.	2.ryy	2.r	.	2.ryy
.	.	16g/	.	.	.	.	.	.
!	!	!	!LO:SIC:v:s=8bb\	!	!	!	!	!
.	8ccL 8g 8e/	16e/	8bb-\	.	.	.	.	.
.	.	16g/	.	.	.	.	.	.
8r	8ccJ 8g 8e/	16e/	8aa\J	.	.	.	.	.
.	.	16g/JJ	.	.	.	.	.	.
*	*tremolo	*rep	*	*	*	*	*	*
!LO:N:vis=2	!	!	!	!	!	!	!	!
4.r	8ccL 8g 8e/	16e/LL	4.gg\	.	.	.	.	.
.	.	16g/	.	.	.	.	.	.
.	8cc 8g 8e/	16e/	.	.	.	.	.	.
.	.	16g/	.	.	.	.	.	.
.	8ccJ 8g 8e/	16e/	.	.	.	.	.	.
.	.	16g/JJ	.	.	.	.	.	.
*	*Xtremolo	*Xrep	*	*	*	*	*	*
=73	=73	=73	=73	=73	=73	=73	=73	=73
!LO:N:vis=8	!	!	!LO:TX:t=P:problem:mixed beam	!	!	!	!	!
4FF/	4cc 4a 4f/	4a 4f/	8a/L	.	2.ryy	2.r	.	2.ryy
.	.	.	8aa\	.	.	.	.	.
8r	8r	8r	8aa\J	.	.	.	.	.
!LO:N:vis=2	!LO:N:vis=2	!LO:N:vis=2	!	!	!	!	!	!
4.r	4.r	4.r	8aa\L	.	.	.	.	.
!	!	!	!LO:SIC:v:s=8bb\	!	!	!	!	!
.	.	.	8bb-\	.	.	.	.	.
.	.	.	8ccc\J	.	.	.	.	.
=74	=74	=74	=74	=74	=74	=74	=74	=74
*	*tremolo	*	*	*	*	*	*	*
8G\L	8ccL 8g 8e/	16e/LL	4.gg\	.	2.ryy	2.r	.	2.ryy
.	.	16G/	.	.	.	.	.	.
8G\	8cc 8g 8e/	16e/	.	.	.	.	.	.
.	.	16G/	.	.	.	.	.	.
8G\J	8ccJ 8g 8e/	16e/	.	.	.	.	.	.
.	.	16G/JJ	.	.	.	.	.	.
8GG/L	8bnL 8f 8d/	16d/LL	4.ff\	.	.	.	.	.
.	.	16G/	.	.	.	.	.	.
8GG/	8b 8f 8d/	16d/	.	.	.	.	.	.
.	.	16G/	.	.	.	.	.	.
8GG/J	8bJ 8f 8d/	16d/	.	.	.	.	.	.
.	.	16G/JJ	.	.	.	.	.	.
*	*Xtremolo	*	*	*	*	*	*	*
=75	=75	=75	=75	=75	=75	=75	=75	=75
!LO:LB:g=original	!LO:LB:g=original	!	!	!	!	!	!	!
4C/	4cc 4g 4e/	4c/	8ee\L	.	2.ryy	2.r	.	2.ryy
.	.	.	8gg\	.	.	.	.	.
8r	8r	8r	8gg\J	.	.	.	.	.
!LO:N:vis=2	!LO:N:vis=2	!LO:N:vis=2	!	!	!	!	!	!
4.r	4.r	4.r	8aa\L	.	.	.	.	.
!	!	!	!LO:SIC:v:s=8bb\	!	!	!	!	!
.	.	.	8bb-\	.	.	.	.	.
.	.	.	8ccc\J	.	.	.	.	.
=76	=76	=76	=76	=76	=76	=76	=76	=76
*	*tremolo	*	*	*	*	*	*	*
8G\L	8ccL 8g 8e/	16G/LL	4.ee\	.	2.ryy	2.r	.	2.ryy
.	.	16c/	.	.	.	.	.	.
8G\	8cc 8g 8e/	16G/	.	.	.	.	.	.
.	.	16c/	.	.	.	.	.	.
8G\J	8ccJ 8g 8e/	16G/	.	.	.	.	.	.
.	.	16c/JJ	.	.	.	.	.	.
8GG/L	8bnL 8f 8d/	16G/LL	4.dd\	.	.	.	.	.
!	!	!LO:SIC:v:s=16B/	!	!	!	!	!	!
.	.	16B-/	.	.	.	.	.	.
8GG/	8b 8f 8d/	16G/	.	.	.	.	.	.
!	!	!LO:SIC:v:s=16B/	!	!	!	!	!	!
.	.	16B-/	.	.	.	.	.	.
8GG/J	8bJ 8f 8d/	16G/	.	.	.	.	.	.
!	!	!LO:SIC:v:s=16B/JJ	!	!	!	!	!	!
.	.	16B-/JJ	.	.	.	.	.	.
*	*Xtremolo	*	*	*	*	*	*	*
=77	=77	=77	=77	=77	=77	=77	=77	=77
*	*	*tremolo	*	*	*	*	*	*
!	!LO:TX:t=P:problem:mixed beam	!	!LO:TX:t=P:problem:mixed beam	!	!	!	!	!
8C/L	8cc\L	8c/L	8cc\L	.	2.ryy	2.r	.	2.ryy
8C/	8c/	8c/	8c/	.	.	.	.	.
8C/J	8c/J	8c/J	8c/J	.	.	.	.	.
*	*	*Xtremolo	*	*	*	*	*	*
4C/	4c/	4c/	4c/	.	.	.	.	.
8r	8r	8r	8r	.	.	.	.	.
=78	=78	=78	=78	=78	=78	=78	=78	=78
!	!	!LO:TX:a:t=9	!	!	!	!	!	!
4CC/	8.gL 8.e/	2.r	2.r	.	2.ryy	8.G/	Kie-	2.ryy
.	16aK 16f/	.	.	.	.	16A/	-dy	.
8r	8gJ 8e/	.	.	.	.	8G/	nas	.
4C/	8gL 8e/	.	.	.	.	8G/L	Ka-	.
.	8a 8f/	.	.	.	.	8A/J	.	.
8r	8bnJ 8d/	.	.	.	.	8Bn/	-rzesz	.
=79	=79	=79	=79	=79	=79	=79	=79	=79
4CC/	4cc 4e/	2.r	2.r	.	2.ryy	4c/	pro-	2.ryy
8r	16bnLL 16g/	.	.	.	.	16B-/LL	-sie-	.
.	16aJJ 16f/	.	.	.	.	16A/JJ	-my	.
4C/	8g/L	.	.	.	.	4G/	cie-	.
.	8e/	.	.	.	.	.	.	.
8r	8c/J	.	.	.	.	8E/	-bie	.
=80	=80	=80	=80	=80	=80	=80	=80	=80
!	!	!	!	!	!	!LO:LB:g=original	!	!
2.F\	4a 4f/	2.r	2.r	.	2.ryy	4A\	a-	2.ryy
.	8b- 8g/	.	.	.	.	8Bn\	-byś	.
.	8ccL 8a/	.	.	.	.	8c\L	sie	.
.	8bn 8g/	.	.	.	.	8B\J	.	.
.	8aJ 8f/	.	.	.	.	8A\	zmi-	.
=81	=81	=81	=81	=81	=81	=81	=81	=81
8r	4.g 4.e/	2.r	2.r	.	2.ryy	4.GT/	-ło-	2.ryy
8G\L	.	.	.	.	.	.	.	.
8G\J	.	.	.	.	.	.	.	.
!	!LO:TX:b:i:t=Verte Cito	!	!	!	!	!	!	!
8r	4.f 4.d/	.	.	.	.	4.FT/	.	.
8GG/L	.	.	.	.	.	.	.	.
8GG/J	.	.	.	.	.	.	.	.
=82	=82	=82	=82	=82	=82	=82	=82	=82
!LO:TX:t=P:problem:mixed beam	!	!	!	!	!	!	!	!
!LO:PB:g=original	!LO:PB:g=original	!	!	!	!	!	!	!
8C\L	8e/L	2.r	2.r	.	2.ryy	4E/	-wał	2.ryy
8CC/	8c/	.	.	.	.	.	.	.
8CC/J	8c/J	.	.	.	.	8r	.	.
!	!	!	!	!	!	!LO:N:vis=2	!	!
4CC/	4c/	.	.	.	.	4.r	.	.
8r	8r	.	.	.	.	.	.	.
=83	=83	=83	=83	=83	=83	=83	=83	=83
4CC/	8.gL 8.e/	2.r	2.r	.	2.ryy	8.G/	a	2.ryy
.	16aK 16f/	.	.	.	.	16A/	gdy	.
8r	8gJ 8e/	.	.	.	.	8G/	prze-	.
4C\	8gL 8e/	.	.	.	.	8G/	-sta-	.
.	8a 8f/	.	.	.	.	8A/	-niesz	.
8r	8bnJ 8d/	.	.	.	.	8Bn/	po-	.
=84	=84	=84	=84	=84	=84	=84	=84	=84
4CC/	4cc 4e/	2.r	2.r	.	2.ryy	4c/	-bu-	2.ryy
8r	16bnLL 16g/	.	.	.	.	16B-/	-dza-	.
.	16aJJ 16f/	.	.	.	.	16A/	-my	.
4C/	8gL 8e/	.	.	.	.	8G/	cie	.
.	8e 8c/	.	.	.	.	8E/	zno-	.
8r	8gJ 8e/	.	.	.	.	8G/	-wu	.
=85	=85	=85	=85	=85	=85	=85	=85	=85
4F\	8aL 8f\	2.r	2.r	.	2.ryy	8A\	a-	2.ryy
.	8bn 8g\	.	.	.	.	8Bn\	-byś	.
8r	8ccJ 8a\	.	.	.	.	8c\	na(m)	.
!LO:N:vis=2	!	!	!	!	!	!	!	!
4.r	8ddL 8b\	.	.	.	.	8d\	.	.
.	8ee 8cc\	.	.	.	.	8e\	nie	.
.	8ffJ 8dd\	.	.	.	.	8f\	fol-	.
=86	=86	=86	=86	=86	=86	=86	=86	=86
!	!	!	!	!	!	!LO:LB:g=original	!	!
8G\L	4.ee 4.ccT\	2.r	2.r	.	2.ryy	4.et\	-go-	2.ryy
8G\	.	.	.	.	.	.	.	.
8G\J	.	.	.	.	.	.	.	.
!	!LO:SIC:v:n=2:s=4.bnT\	!	!	!	!	!	!	!
8GG/L	4.dd 4.b-T\	.	.	.	.	4.dT\	.	.
8GG/	.	.	.	.	.	.	.	.
8GG/J	.	.	.	.	.	.	.	.
=87	=87	=87	=87	=87	=87	=87	=87	=87
!	!	!LO:PB:g=original	!LO:LB:g=original	!	!	!	!	!
4C/	8cc\L	8a/L	8cc\L	.	2.ryy	4c\	-wał	2.ryy
.	8cc\	8a/	8cc\	.	.	.	.	.
8r	8cc\J	8a/J	8cc\J	.	.	8r	.	.
!LO:N:vis=2	!	!	!	!	!	!	!	!
4.r	8cc\L	8a/L	8cc\L	.	.	4.r	.	.
.	8dd\	8b-/	8dd\	.	.	.	.	.
.	8b-XJ 8g\	8g/J	8b-X\J	.	.	.	.	.
=88	=88	=88	=88	=88	=88	=88	=88	=88
!LO:LB:g=original	!LO:LB:g=original	!	!	!	!	!	!	!
2.C 2.CC/	8aL 8c/	8d/L	8b-\L	.	2.ryy	2.r	.	2.ryy
.	8a 8c/	8c/	8a\	.	.	.	.	.
.	8aJ 8c/	8c/J	8a\J	.	.	.	.	.
.	8aL 8c/	8c/L	8a\L	.	.	.	.	.
.	8b- 8d/	8d/	8b-\	.	.	.	.	.
.	8gJ 8B-/	8B-/J	8g\J	.	.	.	.	.
=89	=89	=89	=89	=89	=89	=89	=89	=89
4FF/	4.f 4.A/	4A/	4f/	.	2.ryy	8.c\	Kie-	2.ryy
.	.	.	.	.	.	16d\	-dy	.
8r	.	8r	8r	.	.	8c\	nas	.
!	!	!LO:N:vis=2	!LO:N:vis=2	!	!	!	!	!
4F\	8a\L	4.r	4.r	.	.	8c\L	Ka-	.
.	8b-\	.	.	.	.	8d\J	.	.
8r	8g\J	.	.	.	.	8e\	-rzesz	.
=90	=90	=90	=90	=90	=90	=90	=90	=90
!	!	!LO:TX:a:t=44	!	!	!	!	!	!
4FF/	4a\	2.r	2.r	.	2.ryy	4f\	pro-	2.ryy
8r	16cc\LL	.	.	.	.	16e\	-sie-	.
.	16b-\JJ	.	.	.	.	16d\	-my	.
4F\	8a\L	.	.	.	.	8c\L	cie-	.
.	8f\	.	.	.	.	8A\J	.	.
8r	8a\J	.	.	.	.	8F/	-bie	.
=91	=91	=91	=91	=91	=91	=91	=91	=91
4B- 4BB-\	4b-\	2.r	2.r	.	2.ryy	4d\	a-	2.ryy
8r	8cc\	.	.	.	.	8e\	-byś	.
!LO:N:vis=2	!	!	!	!	!	!	!	!
4.r	8dd\L	.	.	.	.	8f\L	sie	.
.	8cc\	.	.	.	.	8e\J	.	.
.	8b-\J	.	.	.	.	8d\	zmi-	.
=92	=92	=92	=92	=92	=92	=92	=92	=92
4C/	8r	2.r	2.r	.	2.ryy	4.cT\	-ło-	2.ryy
.	8aL 8c/	.	.	.	.	.	.	.
8r	8aJ 8c/	.	.	.	.	.	.	.
4CC/	8r	.	.	.	.	4.B-X\	.	.
.	8gL 8B-/	.	.	.	.	.	.	.
8r	8gJ 8B-/	.	.	.	.	.	.	.
=93	=93	=93	=93	=93	=93	=93	=93	=93
8FF/L	8f/L	2.r	2.r	.	2.ryy	4A\	-wał	2.ryy
8AA/	8A/	.	.	.	.	.	.	.
8C/J	8c/J	.	.	.	.	8r	.	.
!	!	!	!	!	!	!LO:N:vis=2	!	!
4F\	4f/	.	.	.	.	4.r	.	.
8r	8r	.	.	.	.	.	.	.
=94	=94	=94	=94	=94	=94	=94	=94	=94
!	!	!	!	!	!	!LO:LB:g=original	!	!
4FF/	8.a\L	2.r	2.r	.	2.ryy	8.c\	a	2.ryy
.	16b-\K	.	.	.	.	16d\	gdy	.
8r	8a\J	.	.	.	.	8c\	prze-	.
4F\	8a\L	.	.	.	.	8c\	-sta-	.
.	8b-\	.	.	.	.	8d\	-niesz	.
8r	8g\J	.	.	.	.	8e\	po-	.
=95	=95	=95	=95	=95	=95	=95	=95	=95
!LO:LB:g=original	!LO:LB:g=original	!	!	!	!	!	!	!
4FF/	4a\	2.r	2.r	.	2.ryy	4f\	-bu-	2.ryy
8r	16cc\LL	.	.	.	.	16e\	-dza-	.
.	16b-\JJ	.	.	.	.	16d\	-my	.
4F\	8a\L	.	.	.	.	8c\L	cie	.
.	8f\	.	.	.	.	8A\J	zno-	.
8r	8a\J	.	.	.	.	8F/	-wu	.
=96	=96	=96	=96	=96	=96	=96	=96	=96
4B- 4BB-\	4b-\	2.r	2.r	.	2.ryy	8d\	a-	2.ryy
.	.	.	.	.	.	8d\	-bys	.
8r	8cc\	.	.	.	.	8e\	nam	.
!LO:N:vis=2	!	!	!	!	!	!	!	!
4.r	8dd\L	.	.	.	.	8f\L	nie	.
.	8cc\	.	.	.	.	8e\J	.	.
.	8b-\J	.	.	.	.	8d\	fol-	.
=97	=97	=97	=97	=97	=97	=97	=97	=97
4C/	8r	2.r	2.r	.	2.ryy	4.cT\	-go-	2.ryy
.	8aL 8c/	.	.	.	.	.	.	.
8r	8aJ 8c/	.	.	.	.	.	.	.
4CC/	8r	.	.	.	.	4.B-T\	.	.
.	8gL 8B-/	.	.	.	.	.	.	.
8r	8gJ 8B-/	.	.	.	.	.	.	.
=98	=98	=98	=98	=98	=98	=98	=98	=98
!LO:TX:t=P:problem:mixed beam	!	!	!	!	!	!	!	!
8FF/L	8fL 8A/	2.r	2.r	.	2.ryy	4A\	-wał	2.ryy
8F\	8f 8A/	.	.	.	.	.	.	.
8F\J	8fJ 8A/	.	.	.	.	8r	.	.
!	!	!	!	!	!	!LO:N:vis=2	!	!
4F\	4f 4A/	.	.	.	.	4.r	.	.
8r	8r	.	.	.	.	.	.	.
=99	=99	=99	=99	=99	=99	=99	=99	=99
4E\	4b-X 4g 4e/	2.r	2.r	.	2.ryy	4g\	Kie-	2.ryy
8r	8r	.	.	.	.	32f\LLL	-dy	.
.	.	.	.	.	.	32e\JJJ	.	.
.	.	.	.	.	.	32d\LLL	nas	.
.	.	.	.	.	.	32c\JJJ	.	.
!LO:N:vis=2	!LO:N:vis=2	!	!	!	!	!	!	!
4.r	4.r	.	.	.	.	4B-\	Ka-	.
.	.	.	.	.	.	8G\	-rzesz	.
=100	=100	=100	=100	=100	=100	=100	=100	=100
4.FF/	4f/	2.r	2.r	.	2.ryy	4A\	pro-	2.ryy
.	8g/	.	.	.	.	16B-\	-sie-	.
.	.	.	.	.	.	16B-\	-my	.
4.F\	4a/	.	.	.	.	4c\	cie-	.
.	8f/	.	.	.	.	8f\	-bie	.
=101	=101	=101	=101	=101	=101	=101	=101	=101
4.B-\	4.g 4.d/	2.r	2.r	.	2.ryy	4d\	a-	2.ryy
.	.	.	.	.	.	8qqc/	.	.
.	.	.	.	.	.	8B-\	-byś	.
.	.	.	.	.	.	8qqA/	.	.
4.Bn\	4.f 4.d/	.	.	.	.	4G\	sie	.
.	.	.	.	.	.	16F\LL	zmi-	.
.	.	.	.	.	.	16G\JJ	.	.
=102	=102	=102	=102	=102	=102	=102	=102	=102
!LO:LB:g=original	!LO:LB:g=original	!	!	!	!	!	!	!
8r	8r	2.r	2.r	.	2.ryy	4.FT/	-ło-	2.ryy
8c\L	8aL 8f/	.	.	.	.	.	.	.
8c\J	8aJ 8f/	.	.	.	.	.	.	.
4C/	4g 4e/	.	.	.	.	4E/	-wał	.
8r	8r	.	.	.	.	8r	.	.
=103	=103	=103	=103	=103	=103	=103	=103	=103
4E 4C\	4b- 4g 4e/	2.r	2.r	.	2.ryy	4g\	a	2.ryy
8r	8r	.	.	.	.	32f\LLL	gdy	.
.	.	.	.	.	.	32e\JJJ	.	.
.	.	.	.	.	.	32d\LLL	prze-	.
.	.	.	.	.	.	32c\JJJ	.	.
!LO:N:vis=2	!LO:N:vis=2	!	!	!	!	!	!	!
4.r	4.r	.	.	.	.	8B-\	-sta-	.
.	.	.	.	.	.	8G\	-nierz	.
.	.	.	.	.	.	8B-\	po-	.
=104	=104	=104	=104	=104	=104	=104	=104	=104
!	!	!	!	!	!	!LO:LB:g=original	!	!
4.FF/	8f/L	2.r	2.r	.	2.ryy	8A\	-bu-	2.ryy
.	8f/	.	.	.	.	8A\	-dza-	.
.	8g/J	.	.	.	.	8B-\	-my	.
4.AA/	8a/L	.	.	.	.	8c\	cie	.
.	8b-/	.	.	.	.	8d\	zno-	.
.	8cc/J	.	.	.	.	8e-X\	-wu	.
=105	=105	=105	=105	=105	=105	=105	=105	=105
4BB-/	4dd\	2.r	2.r	.	2.ryy	8d\	a-	2.ryy
.	.	.	.	.	.	8en\	-bys	.
8r	8r	.	.	.	.	8f\	nam	.
!LO:N:vis=2	!LO:N:vis=2	!	!	!	!	!	!	!
4.r	4.r	.	.	.	.	8g\L	nie	.
.	.	.	.	.	.	8a\J	.	.
.	.	.	.	.	.	8b-\	fol-	.
=106	=106	=106	=106	=106	=106	=106	=106	=106
4C/	8r	2.r	2.r	.	2.ryy	4.at\	-go-	2.ryy
.	8ccL 8a\	.	.	.	.	.	.	.
8r	8ccJ 8a\	.	.	.	.	.	.	.
4CC/	8r	.	.	.	.	4.gT\	.	.
.	8b-L 8g\	.	.	.	.	.	.	.
8r	8b-J 8g\	.	.	.	.	.	.	.
=107	=107	=107	=107	=107	=107	=107	=107	=107
!LO:TX:t=P:problem:mixed beam	!	!	!	!	!	!	!	!
8FF/L	8fL 8A/	2.r	2.r	.	2.ryy	4f\	-wał	2.ryy
8F\	8f 8A/	.	.	.	.	.	.	.
8F\J	8fJ 8A/	.	.	.	.	8r	.	.
!	!	!	!	!	!	!LO:N:vis=2	!	!
4F\	4f 4A/	.	.	.	.	4.r	.	.
8r	8r	.	.	.	.	.	.	.
=108	=108	=108	=108	=108	=108	=108	=108	=108
!	!	!	!	!	!	!LO:TX:t=P:problem:takty 107-115 w T i Org zapisane repetycją; \npauzy w Vln 1 i 2 rozpisane	!	!
4E\	4b-X 4g 4e/	2.r	2.r	.	2.ryy	4g\	Kie-	2.ryy
8r	8r	.	.	.	.	32f\LLL	-dy	.
.	.	.	.	.	.	32e\JJJ	.	.
.	.	.	.	.	.	32d\LLL	nas	.
.	.	.	.	.	.	32c\JJJ	.	.
!LO:N:vis=2	!LO:N:vis=2	!	!	!	!	!	!	!
4.r	4.r	.	.	.	.	4B-\	Ka-	.
.	.	.	.	.	.	8G\	-rzesz	.
=109	=109	=109	=109	=109	=109	=109	=109	=109
4.FF/	4f/	2.r	2.r	.	2.ryy	4A\	pro-	2.ryy
.	8g/	.	.	.	.	16B-\	-sie-	.
.	.	.	.	.	.	16B-\	-my	.
4.F\	4a/	.	.	.	.	4c\	cie-	.
.	8f/	.	.	.	.	8f\	-bie	.
=110	=110	=110	=110	=110	=110	=110	=110	=110
4.B-\	4.g 4.d/	2.r	2.r	.	2.ryy	4d\	a-	2.ryy
.	.	.	.	.	.	8qqc/	.	.
.	.	.	.	.	.	8B-\	-byś	.
.	.	.	.	.	.	8qqA/	.	.
4.Bn\	4.f 4.d/	.	.	.	.	4G\	sie	.
.	.	.	.	.	.	16F\LL	zmi-	.
.	.	.	.	.	.	16G\JJ	.	.
=111	=111	=111	=111	=111	=111	=111	=111	=111
!LO:LB:g=original	!LO:LB:g=original	!	!	!	!	!	!	!
8r	8r	2.r	2.r	.	2.ryy	4.FT/	-ło-	2.ryy
8c\L	8aL 8f/	.	.	.	.	.	.	.
8c\J	8aJ 8f/	.	.	.	.	.	.	.
4C/	4g 4e/	.	.	.	.	4E/	-wał	.
8r	8r	.	.	.	.	8r	.	.
=112	=112	=112	=112	=112	=112	=112	=112	=112
4E 4C\	4b- 4g 4e/	2.r	2.r	.	2.ryy	4g\	a	2.ryy
8r	8r	.	.	.	.	32f\LLL	gdy	.
.	.	.	.	.	.	32e\JJJ	.	.
.	.	.	.	.	.	32d\LLL	prze-	.
.	.	.	.	.	.	32c\JJJ	.	.
!LO:N:vis=2	!LO:N:vis=2	!	!	!	!	!	!	!
4.r	4.r	.	.	.	.	8B-\	-sta-	.
.	.	.	.	.	.	8G\	-nierz	.
.	.	.	.	.	.	8B-\	po-	.
=113	=113	=113	=113	=113	=113	=113	=113	=113
!	!	!	!	!	!	!LO:LB:g=original	!	!
4.FF/	8f/L	2.r	2.r	.	2.ryy	8A\	-bu-	2.ryy
.	8f/	.	.	.	.	8A\	-dza-	.
.	8g/J	.	.	.	.	8B-\	-my	.
4.AA/	8a/L	.	.	.	.	8c\	cie	.
.	8b-/	.	.	.	.	8d\	zno-	.
.	8cc/J	.	.	.	.	8e-X\	-wu	.
=114	=114	=114	=114	=114	=114	=114	=114	=114
4BB-/	4dd\	2.r	2.r	.	2.ryy	8d\	a-	2.ryy
.	.	.	.	.	.	8en\	-bys	.
8r	8r	.	.	.	.	8f\	nam	.
!LO:N:vis=2	!LO:N:vis=2	!	!	!	!	!	!	!
4.r	4.r	.	.	.	.	8g\L	nie	.
.	.	.	.	.	.	8a\J	.	.
.	.	.	.	.	.	8b-\	fol-	.
=115	=115	=115	=115	=115	=115	=115	=115	=115
4C/	8r	2.r	2.r	.	2.ryy	4.at\	-go-	2.ryy
.	8ccL 8a\	.	.	.	.	.	.	.
8r	8ccJ 8a\	.	.	.	.	.	.	.
4CC/	8r	.	.	.	.	4.gT\	.	.
.	8b-L 8g\	.	.	.	.	.	.	.
8r	8b-J 8g\	.	.	.	.	.	.	.
=116	=116	=116	=116	=116	=116	=116	=116	=116
8FF/L	8aL 8f\	2.r	2.r	.	2.ryy	4f\	-wał	2.ryy
16FF/L	16f\L	.	.	.	.	.	.	.
32GG/L	32g\L	.	.	.	.	.	.	.
32AA/JJJ	32a\JJJ	.	.	.	.	.	.	.
32BB-\LLL	32b-\LLL	.	.	.	.	8r	.	.
32C\	32cc\	.	.	.	.	.	.	.
32D\	32dd\	.	.	.	.	.	.	.
32E\JJJ	32ee\JJJ	.	.	.	.	.	.	.
!	!	!	!	!	!	!LO:N:vis=2	!	!
8F\	8ff\	.	.	.	.	4.r	.	.
8r	8r	.	.	.	.	.	.	.
8r	8r	.	.	.	.	.	.	.
=117	=117	=117	=117	=117	=117	=117	=117	=117
!LO:TX:t=P:problem:mixed beam	!	!	!	!	!	!	!	!
8C/L	4cc\	2.r	2.r	.	2.ryy	8c\	a	2.ryy
8c\	.	.	.	.	.	32c\LLL	gdy	.
.	.	.	.	.	.	32d\	.	.
.	.	.	.	.	.	32e\	.	.
.	.	.	.	.	.	32f\JJJ	.	.
8c\J	8r	.	.	.	.	32g\LLL	prze-	.
.	.	.	.	.	.	32a\	.	.
.	.	.	.	.	.	32b-\	.	.
.	.	.	.	.	.	32cc\JJJ	.	.
8c\L	8r	.	.	.	.	8b-\	-sta-	.
8c\	8r	.	.	.	.	8g\	-niesz	.
8c\J	32ee\LLL	.	.	.	.	8r	.	.
.	32ff\	.	.	.	.	.	.	.
.	32gg\	.	.	.	.	.	.	.
.	32aa\JJJ	.	.	.	.	.	.	.
=118	=118	=118	=118	=118	=118	=118	=118	=118
!	!	!	!	!	!	!LO:LB:g=original	!	!
4c\	8bb-\	2.r	2.r	.	2.ryy	2.r	.	2.ryy
.	32bb-\LLL	.	.	.	.	.	.	.
.	32ccc\	.	.	.	.	.	.	.
.	32bb-\	.	.	.	.	.	.	.
.	32aa\JJJ	.	.	.	.	.	.	.
8r	32gg\LLL	.	.	.	.	.	.	.
.	32aa\	.	.	.	.	.	.	.
.	32gg\	.	.	.	.	.	.	.
.	32ff\JJJ	.	.	.	.	.	.	.
!LO:N:vis=2	!	!	!	!	!	!	!	!
4.r	32ee\LLL	.	.	.	.	.	.	.
.	32ff\	.	.	.	.	.	.	.
.	32ee\	.	.	.	.	.	.	.
.	32dd\JJJ	.	.	.	.	.	.	.
.	32cc\LLL	.	.	.	.	.	.	.
.	32dd\	.	.	.	.	.	.	.
.	32b-\	.	.	.	.	.	.	.
.	32a\JJJ	.	.	.	.	.	.	.
.	32a\LLL	.	.	.	.	.	.	.
.	32b-\	.	.	.	.	.	.	.
.	32a\	.	.	.	.	.	.	.
.	32g\JJJ	.	.	.	.	.	.	.
=119	=119	=119	=119	=119	=119	=119	=119	=119
*	*	*	*	*	*	*	*ij	*
!LO:TX:t=P:problem:mixed beam	!	!	!	!	!	!	!	!
8C/L	4a 4f/	2.r	2.r	.	2.ryy	8c\	a	2.ryy
8c\	.	.	.	.	.	16c\LL	gdy	.
.	.	.	.	.	.	32d\L	.	.
.	.	.	.	.	.	32e\JJJ	.	.
8c\J	8r	.	.	.	.	32f\LLL	prze-	.
.	.	.	.	.	.	32g\	.	.
.	.	.	.	.	.	32a\	.	.
.	.	.	.	.	.	32b-\JJJ	.	.
8c\L	8r	.	.	.	.	8cc\	-sta-	.
8c\	8r	.	.	.	.	8a\	-niesz	.
8c\J	32ff\LLL	.	.	.	.	8r	.	.
.	32gg\	.	.	.	.	.	.	.
.	32aa\	.	.	.	.	.	.	.
.	32bb-\JJJ	.	.	.	.	.	.	.
=120	=120	=120	=120	=120	=120	=120	=120	=120
4c\	8ccc\	2.r	2.r	.	2.ryy	2.r	.	2.ryy
.	32ccc\LLL	.	.	.	.	.	.	.
.	32ddd\	.	.	.	.	.	.	.
.	32ccc\	.	.	.	.	.	.	.
.	32bb-\JJJ	.	.	.	.	.	.	.
8r	32aa\LLL	.	.	.	.	.	.	.
.	32bb-\	.	.	.	.	.	.	.
.	32aa\	.	.	.	.	.	.	.
.	32gg\JJJ	.	.	.	.	.	.	.
!LO:LB:g=original	!LO:LB:g=original	!	!	!	!	!	!	!
!LO:N:vis=2	!	!	!	!	!	!	!	!
4.r	32ff\LLL	.	.	.	.	.	.	.
.	32gg\	.	.	.	.	.	.	.
.	32ff\	.	.	.	.	.	.	.
.	32ee\JJJ	.	.	.	.	.	.	.
.	32dd\LLL	.	.	.	.	.	.	.
.	32ee\	.	.	.	.	.	.	.
.	32dd\	.	.	.	.	.	.	.
.	32cc\JJJ	.	.	.	.	.	.	.
.	32b-\LLL	.	.	.	.	.	.	.
.	32a\	.	.	.	.	.	.	.
.	32g\	.	.	.	.	.	.	.
.	32a\JJJ	.	.	.	.	.	.	.
=121	=121	=121	=121	=121	=121	=121	=121	=121
8B-\	8b- 8g\	2.r	2.r	.	2.ryy	8g\	a	2.ryy
8r	8r	.	.	.	.	32g\LLL	gdy	.
.	.	.	.	.	.	32f#X\	.	.
.	.	.	.	.	.	32g\	.	.
.	.	.	.	.	.	32a\JJJ	.	.
8r	8r	.	.	.	.	32b-\LLL	prze-	.
.	.	.	.	.	.	32a\	.	.
.	.	.	.	.	.	32b-\	.	.
.	.	.	.	.	.	32cc\JJJ	.	.
8r	8r	.	.	.	.	8dd\	-sta-	.
8r	8r	.	.	.	.	8b-\	-niesz	.
*	*	*	*	*	*	*	*Xij	*
8B-\	16dddLL 16bb-\	.	.	.	.	8r	.	.
.	16cccJJ 16aa\	.	.	.	.	.	.	.
=122	=122	=122	=122	=122	=122	=122	=122	=122
4B-\	4bb- 4gg\	2.r	2.r	.	2.ryy	8g\	po-	2.ryy
.	.	.	.	.	.	32g\LLL	-bu-	.
.	.	.	.	.	.	32f#X\	.	.
.	.	.	.	.	.	32g\	.	.
.	.	.	.	.	.	32a\JJJ	.	.
8r	8r	.	.	.	.	32b-\LLL	-dza-	.
.	.	.	.	.	.	32a\	.	.
.	.	.	.	.	.	32b-\	-my	.
.	.	.	.	.	.	32cc\JJJ	.	.
!LO:N:vis=2	!LO:N:vis=2	!	!	!	!	!	!	!
4.r	4.r	.	.	.	.	8dd\	cie	.
.	.	.	.	.	.	8b-\	zno-	.
.	.	.	.	.	.	8g\	-wu	.
=123	=123	=123	=123	=123	=123	=123	=123	=123
4f\	4aa\	2.r	2.r	.	2.ryy	8c\	a-	2.ryy
.	.	.	.	.	.	8cc\	-bys	.
8r	8r	.	.	.	.	8cc\	nam	.
!	!	!	!	!	!	!LO:LB:g=original	!	!
8c\L	8ee\L	.	.	.	.	8cc\L	nie	.
8d\	8ff\	.	.	.	.	8bn\J	.	.
8e\J	8gg\J	.	.	.	.	8b-X\	fol-	.
=124	=124	=124	=124	=124	=124	=124	=124	=124
*tremolo	*	*	*	*	*	*	*	*
8c\L	16ccLL 16a\	2.r	2.r	.	2.ryy	4.at\	-go-	2.ryy
.	16ff\	.	.	.	.	.	.	.
8c\	16cc 16a\	.	.	.	.	.	.	.
.	16ff\	.	.	.	.	.	.	.
8c\J	16cc 16a\	.	.	.	.	.	.	.
.	16ff\JJ	.	.	.	.	.	.	.
8C/L	16b-LL 16g\	.	.	.	.	4.gT\	.	.
.	16ee\	.	.	.	.	.	.	.
8C/	16b- 16g\	.	.	.	.	.	.	.
.	16ee\	.	.	.	.	.	.	.
8C/J	16b- 16g\	.	.	.	.	.	.	.
.	16ee\JJ	.	.	.	.	.	.	.
*Xtremolo	*	*	*	*	*	*	*	*
=125	=125	=125	=125	=125	=125	=125	=125	=125
!LO:TX:t=P:problem:mixed beam	!LO:TX:t=P:problem:mixed beam	!	!	!	!	!	!	!
8F\LLL	8ff\LLL	2.r	2.r	.	2.ryy	4f\	-wał	2.ryy
16FF/	16f/	.	.	.	.	.	.	.
32GG/	32g/	.	.	.	.	.	.	.
32AA/JJJ	32a/JJJ	.	.	.	.	.	.	.
32BB-\LLL	32b-\LLL	.	.	.	.	8r	.	.
32C\	32cc\	.	.	.	.	.	.	.
32D\	32dd\	.	.	.	.	.	.	.
32E\JJJ	32ee\JJJ	.	.	.	.	.	.	.
!LO:TX:t=P:problem:mixed beam	!LO:TX:t=P:problem:mixed beam	!	!	!	!	!	!	!
!	!	!	!	!	!	!LO:N:vis=2	!	!
8F\L	8ff\L	.	.	.	.	4.r	.	.
8FF\J	8f\J	.	.	.	.	.	.	.
8r	8r	.	.	.	.	.	.	.
=126	=126	=126	=126	=126	=126	=126	=126	=126
!LO:TX:t=P:problem:takty 126-134 zapisane repetycją	!	!	!	!	!	!	!	!
!LO:TX:t=P:problem:mixed beam	!	!	!	!	!	!	!	!
!LO:LB:g=original	!LO:LB:g=original	!	!	!	!	!	!	!
8C/L	4cc\	2.r	2.r	.	2.ryy	8c\	a	2.ryy
8c\	.	.	.	.	.	32c\LLL	gdy	.
.	.	.	.	.	.	32d\	.	.
.	.	.	.	.	.	32e\	.	.
.	.	.	.	.	.	32f\JJJ	.	.
8c\J	8r	.	.	.	.	32g\LLL	prze-	.
.	.	.	.	.	.	32a\	.	.
.	.	.	.	.	.	32b-\	.	.
.	.	.	.	.	.	32cc\JJJ	.	.
8c\L	8r	.	.	.	.	8b-\	-sta-	.
8c\	8r	.	.	.	.	8g\	-niesz	.
8c\J	32ee\LLL	.	.	.	.	8r	.	.
.	32ff\	.	.	.	.	.	.	.
.	32gg\	.	.	.	.	.	.	.
.	32aa\JJJ	.	.	.	.	.	.	.
=127	=127	=127	=127	=127	=127	=127	=127	=127
4c\	8bb-\	2.r	2.r	.	2.ryy	2.r	.	2.ryy
.	32bb-\LLL	.	.	.	.	.	.	.
.	32ccc\	.	.	.	.	.	.	.
.	32bb-\	.	.	.	.	.	.	.
.	32aa\JJJ	.	.	.	.	.	.	.
8r	32gg\LLL	.	.	.	.	.	.	.
.	32aa\	.	.	.	.	.	.	.
.	32gg\	.	.	.	.	.	.	.
.	32ff\JJJ	.	.	.	.	.	.	.
!LO:N:vis=2	!	!	!	!	!	!	!	!
4.r	32ee\LLL	.	.	.	.	.	.	.
.	32ff\	.	.	.	.	.	.	.
.	32ee\	.	.	.	.	.	.	.
.	32dd\JJJ	.	.	.	.	.	.	.
.	32cc\LLL	.	.	.	.	.	.	.
.	32dd\	.	.	.	.	.	.	.
.	32b-\	.	.	.	.	.	.	.
.	32a\JJJ	.	.	.	.	.	.	.
.	32a\LLL	.	.	.	.	.	.	.
.	32b-\	.	.	.	.	.	.	.
.	32a\	.	.	.	.	.	.	.
.	32g\JJJ	.	.	.	.	.	.	.
=128	=128	=128	=128	=128	=128	=128	=128	=128
*	*	*	*	*	*	*	*ij	*
!LO:TX:t=P:problem:mixed beam	!	!	!	!	!	!	!	!
8C/L	4a 4f/	2.r	2.r	.	2.ryy	8c\	a	2.ryy
8c\	.	.	.	.	.	16c\LL	gdy	.
.	.	.	.	.	.	32d\L	.	.
.	.	.	.	.	.	32e\JJJ	.	.
8c\J	8r	.	.	.	.	32f\LLL	prze-	.
.	.	.	.	.	.	32g\	.	.
.	.	.	.	.	.	32a\	.	.
.	.	.	.	.	.	32b-\JJJ	.	.
8c\L	8r	.	.	.	.	8cc\	-sta-	.
8c\	8r	.	.	.	.	8a\	-niesz	.
8c\J	32ff\LLL	.	.	.	.	8r	.	.
.	32gg\	.	.	.	.	.	.	.
.	32aa\	.	.	.	.	.	.	.
.	32bb-\JJJ	.	.	.	.	.	.	.
=129	=129	=129	=129	=129	=129	=129	=129	=129
4c\	8ccc\	2.r	2.r	.	2.ryy	2.r	.	2.ryy
.	32ccc\LLL	.	.	.	.	.	.	.
.	32ddd\	.	.	.	.	.	.	.
.	32ccc\	.	.	.	.	.	.	.
.	32bb-\JJJ	.	.	.	.	.	.	.
8r	32aa\LLL	.	.	.	.	.	.	.
.	32bb-\	.	.	.	.	.	.	.
.	32aa\	.	.	.	.	.	.	.
.	32gg\JJJ	.	.	.	.	.	.	.
!LO:N:vis=2	!	!	!	!	!	!	!	!
!LO:LB:g=original	!LO:LB:g=original	!	!	!	!	!	!	!
4.r	32ff\LLL	.	.	.	.	.	.	.
.	32gg\	.	.	.	.	.	.	.
.	32ff\	.	.	.	.	.	.	.
.	32ee\JJJ	.	.	.	.	.	.	.
.	32dd\LLL	.	.	.	.	.	.	.
.	32ee\	.	.	.	.	.	.	.
.	32dd\	.	.	.	.	.	.	.
.	32cc\JJJ	.	.	.	.	.	.	.
.	32b-\LLL	.	.	.	.	.	.	.
.	32a\	.	.	.	.	.	.	.
.	32g\	.	.	.	.	.	.	.
.	32a\JJJ	.	.	.	.	.	.	.
=130	=130	=130	=130	=130	=130	=130	=130	=130
!	!	!	!	!	!	!LO:LB:g=original	!	!
8B-\	8b- 8g\	2.r	2.r	.	2.ryy	8g\	a	2.ryy
8r	8r	.	.	.	.	32g\LLL	gdy	.
.	.	.	.	.	.	32f#X\	.	.
.	.	.	.	.	.	32g\	.	.
.	.	.	.	.	.	32a\JJJ	.	.
8r	8r	.	.	.	.	32b-\LLL	prze-	.
.	.	.	.	.	.	32a\	.	.
.	.	.	.	.	.	32b-\	.	.
.	.	.	.	.	.	32cc\JJJ	.	.
8r	8r	.	.	.	.	8dd\	-sta-	.
8r	8r	.	.	.	.	8b-\	-niesz	.
*	*	*	*	*	*	*	*Xij	*
8B-\	16dddLL 16bb-\	.	.	.	.	8r	.	.
.	16cccJJ 16aa\	.	.	.	.	.	.	.
=131	=131	=131	=131	=131	=131	=131	=131	=131
4B-\	4bb- 4gg\	2.r	2.r	.	2.ryy	8g\	po-	2.ryy
.	.	.	.	.	.	32g\LLL	-bu-	.
.	.	.	.	.	.	32f#X\	.	.
.	.	.	.	.	.	32g\	.	.
.	.	.	.	.	.	32a\JJJ	.	.
8r	8r	.	.	.	.	32b-\LLL	-dza-	.
.	.	.	.	.	.	32a\	.	.
.	.	.	.	.	.	32b-\	-my	.
.	.	.	.	.	.	32cc\JJJ	.	.
!LO:N:vis=2	!LO:N:vis=2	!	!	!	!	!	!	!
4.r	4.r	.	.	.	.	8dd\	cie	.
.	.	.	.	.	.	8b-\	zno-	.
.	.	.	.	.	.	8g\	-wu	.
=132	=132	=132	=132	=132	=132	=132	=132	=132
4f\	4aa\	2.r	2.r	.	2.ryy	8c\	a-	2.ryy
.	.	.	.	.	.	8cc\	-bys	.
8r	8r	.	.	.	.	8cc\	nam	.
8c\L	8ee\L	.	.	.	.	8cc\L	nie	.
8d\	8ff\	.	.	.	.	8bn\J	.	.
8e\J	8gg\J	.	.	.	.	8b-X\	fol-	.
=133	=133	=133	=133	=133	=133	=133	=133	=133
*tremolo	*	*	*	*	*	*	*	*
8c\L	16ccLL 16a\	2.r	2.r	.	2.ryy	4.at\	-go-	2.ryy
.	16ff\	.	.	.	.	.	.	.
8c\	16cc 16a\	.	.	.	.	.	.	.
.	16ff\	.	.	.	.	.	.	.
8c\J	16cc 16a\	.	.	.	.	.	.	.
.	16ff\JJ	.	.	.	.	.	.	.
8C/L	16b-LL 16g\	.	.	.	.	4.gT\	.	.
.	16ee\	.	.	.	.	.	.	.
8C/	16b- 16g\	.	.	.	.	.	.	.
.	16ee\	.	.	.	.	.	.	.
8C/J	16b- 16g\	.	.	.	.	.	.	.
.	16ee\JJ	.	.	.	.	.	.	.
*Xtremolo	*	*	*	*	*	*	*	*
=134	=134	=134	=134	=134	=134	=134	=134	=134
!LO:TX:t=P:problem:mixed beam	!LO:TX:t=P:problem:mixed beam	!	!	!	!	!	!	!
8F\LLL	8ff\LLL	8.f/L	8.f/L	.	2.ryy	4f\	-wał	2.ryy
16FF/	16f/	.	.	.	.	.	.	.
32GG/	32g/	16f/L	16f/L	.	.	.	.	.
32AA/JJJ	32a/JJJ	.	.	.	.	.	.	.
32BB-\LLL	32b-\LLL	16a/	16a/	.	.	8r	.	.
32C\	32cc\	.	.	.	.	.	.	.
32D\	32dd\	16cc/JJ	16cc/JJ	.	.	.	.	.
32E\JJJ	32ee\JJJ	.	.	.	.	.	.	.
!LO:TX:t=P:problem:mixed beam	!LO:TX:t=P:problem:mixed beam	!LO:TX:t=P:problem:mixed beam	!LO:TX:t=P:problem:mixed beam	!	!	!	!	!
!	!	!	!	!	!	!LO:N:vis=2	!	!
8F\L	8ff\L	8ff\L	8ff\L	.	.	4.r	.	.
8FF/J	8f/J	8f/J	8f/J	.	.	.	.	.
8r	8r	8r	8r	.	.	.	.	.
=135	=135	=135	=135	=135	=135	=135	=135	=135
!LO:LB:g=original	!LO:LB:g=original	!	!	!	!	!	!	!
8D\	8dd\	8.d/L	8.d/L	.	2.ryy	2.r	.	2.ryy
16D\LL	16d/LL	.	.	.	.	.	.	.
32E\L	32e/L	16d/L	16d/L	.	.	.	.	.
32F\JJJ	32f/JJJ	.	.	.	.	.	.	.
32G\LLL	32g/LLL	16f/	16f/	.	.	.	.	.
32A\	32a/	.	.	.	.	.	.	.
32B-\	32b-/	16a/JJ	16a/JJ	.	.	.	.	.
32c#X\JJJ	32cc#X/JJJ	.	.	.	.	.	.	.
!LO:TX:t=P:problem:mixed beam	!LO:TX:t=P:problem:mixed beam	!LO:TX:t=P:problem:mixed beam	!LO:TX:t=P:problem:mixed beam	!	!	!	!	!
8d\L	8dd\L	8dd\L	8dd\L	.	.	.	.	.
8D/J	8d/J	8d/J	8d/J	.	.	.	.	.
8r	8r	8r	8r	.	.	.	.	.
=136	=136	=136	=136	=136	=136	=136	=136	=136
8BB-\L	8b-X\	8.B-/L	8.B-/L	.	2.ryy	2.r	.	2.ryy
16BB-\L	16B-/LL	.	.	.	.	.	.	.
32C\L	32c/L	16B-/L	16B-/L	.	.	.	.	.
32D\JJJ	32d/JJJ	.	.	.	.	.	.	.
32E\LLL	32e/LLL	16d/	16d/	.	.	.	.	.
32F\	32f/	.	.	.	.	.	.	.
32G\	32g/	16f/JJ	16f/JJ	.	.	.	.	.
32A\JJJ	32a/JJJ	.	.	.	.	.	.	.
4B-\	4b-\	8b-\	8b-\	.	.	.	.	.
.	.	4bn\	4bn\	.	.	.	.	.
8Bn\	8bn\	.	.	.	.	.	.	.
=137	=137	=137	=137	=137	=137	=137	=137	=137
!	!	!	!	!	!	!	!	!
!	!LO:TX:b:i:t=al Segno	!	!	!	!	!	!	!
2c\	2cc;\	2.cc;\	2.cc;\	.	2.ryy	2.r;	.	2.ryy
8ryy	8ryy	.	.	.	.	.	.	.
8ryy	8ryy	.	.	.	.	.	.	.
=138	=138	=138	=138	=138	=138	=138	=138	=138
!LO:TX:t=P:problem:cadenza w T nieoznaczona	!LO:TX:t=P:problem:cadenza w T nieoznaczona	!LO:TX:t=P:problem:cadenza w T nieoznaczona	!LO:TX:t=P:problem:cadenza w T nieoznaczona	!	!	!LO:TX:t=P:problem:cadenza	!	!
8%41ryy	8%41ryy	8%41ryy	8%41ryy	.	8%41ryy	8f\	pro-	8%41ryy
.	.	.	.	.	.	8f\	-sie-	.
.	.	.	.	.	.	8f\	-my	.
.	.	.	.	.	.	8f#X\	cie	.
.	.	.	.	.	.	32g\LLL	a-	.
.	.	.	.	.	.	32f#\	.	.
.	.	.	.	.	.	32g\	.	.
.	.	.	.	.	.	32a\JJJ	.	.
.	.	.	.	.	.	32b-\LLL	-bys	.
.	.	.	.	.	.	32a\	.	.
.	.	.	.	.	.	32b-\	.	.
.	.	.	.	.	.	32cc\JJJ	.	.
.	.	.	.	.	.	8dd\L	sie	.
.	.	.	.	.	.	8b-\J	.	.
.	.	.	.	.	.	8a\L	zmi-	.
.	.	.	.	.	.	8g\J	.	.
.	.	.	.	.	.	32f#\LLL	-ło-	.
.	.	.	.	.	.	32c\	.	.
.	.	.	.	.	.	32d\	.	.
.	.	.	.	.	.	32e\JJJ	.	.
.	.	.	.	.	.	32f#\LLL	.	.
.	.	.	.	.	.	32g\	.	.
.	.	.	.	.	.	32a\	.	.
.	.	.	.	.	.	32b-\JJJ	.	.
.	.	.	.	.	.	4cc;\	.	.
.	.	.	.	.	.	8bn\L	.	.
.	.	.	.	.	.	8b-X\	.	.
.	.	.	.	.	.	8a-X\	.	.
.	.	.	.	.	.	8g\J	.	.
.	.	.	.	.	.	8f#\	-wał	.
.	.	.	.	.	.	8g\	zmi-	.
.	.	.	.	.	.	8a-X\L	-ło-	.
.	.	.	.	.	.	8g\J	.	.
.	.	.	.	.	.	8f#\	-wał	.
.	.	.	.	.	.	8g\	zmi-	.
.	.	.	.	.	.	(4a-X\	-ło-	.
.	.	.	.	.	.	4g\)	.	.
!	!	!	!	!	!	!LO:LB:g=original	!	!
.	.	.	.	.	.	2f#\	-wał	.
.	.	.	.	.	.	8r	.	.
.	.	.	.	.	.	8f#\	a-	.
.	.	.	.	.	.	8f#\	-bys	.
.	.	.	.	.	.	8f#\	sie	.
.	.	.	.	.	.	8f#X\	zmi-	.
.	.	.	.	.	.	2gt\	-ło-	.
!	!	!	!	!	!	!LO:SIC:v:s=16qqf/LL	!	!
.	.	.	.	.	.	16qqf#/LL	.	.
.	.	.	.	.	.	16qqg/JJ	.	.
=139	=139	=139	=139	=139	=139	=139	=139	=139
=140	=140	=140	=140	=140	=140	=140	=140	=140
!LO:TX:t=P:problem:t. 1-16 zapisane jako da capo	!LO:TX:t=P:problem:t. 1-16 zapisane jako da capo	!	!	!	!	!	!	!
!LO:TX:t=P:problem:mixed beam	!	!	!	!	!	!	!	!
8FF/Lyy	8.ccLyy 8.a\yy	8.a/L	8.cc\L	.	2.ryy	8f\	-wał	2.ryy
8F\yy	.	.	.	.	.	8r	.	.
.	16ddKyy 16b-\yy	16b-/K	16dd\K	.	.	.	.	.
8F\Jyy	8ccJyy 8a\yy	8a/J	8cc\J	.	.	8r	.	.
!	!	!	!	!	!	!LO:N:vis=2	!	!
8F\Lyy	8ccLyy 8a\yy	8a/L	8cc\L	.	.	4.r	.	.
8F\yy	8ffyy 8a\yy	8a/	8ff\	.	.	.	.	.
8F\Jyy	8ccJyy 8a\yy	8a/J	8cc\J	.	.	.	.	.
=141	=141	=141	=141	=141	=141	=141	=141	=141
!LO:TX:t=P:problem:mixed beam	!	!	!	!	!	!	!	!
!	!	!LO:LB:g=original	!LO:LB:g=original	!	!	!	!	!
8FF/Lyy	8cc#XLyy 8a\yy	8a/L	8cc#X\L	.	2.ryy	2.r	.	2.ryy
8F\yy	8ddyy 8b-\yy	8b-/	8dd\	.	.	.	.	.
8F\Jyy	8ddJyy 8b-\yy	8b-/J	8dd\J	.	.	.	.	.
8F\Lyy	4ddyy 4b-\yy	4b-/	4dd\	.	.	.	.	.
8F\yy	.	.	.	.	.	.	.	.
8F\Jyy	8ryy	8r	8r	.	.	.	.	.
=142	=142	=142	=142	=142	=142	=142	=142	=142
!LO:TX:t=P:problem:mixed beam	!	!	!	!	!	!	!	!
8FF/Lyy	8.ddLyy 8.b-\yy	8.b-/L	8.dd\L	.	2.ryy	2.r	.	2.ryy
8F\yy	.	.	.	.	.	.	.	.
.	16eeKyy 16cc\yy	16cc/K	16ee\K	.	.	.	.	.
8F\Jyy	8ddJyy 8b-\yy	8b-/J	8dd\J	.	.	.	.	.
8F\Lyy	4bb-yy 4dd\yy	8b-/L	8dd\L	.	.	.	.	.
8F\yy	.	8dd/	8bb-\	.	.	.	.	.
8F\Jyy	8ddyy 8b-\yy	8b-/J	8dd\J	.	.	.	.	.
=143	=143	=143	=143	=143	=143	=143	=143	=143
!LO:TX:t=P:problem:mixed beam	!	!	!	!	!	!	!	!
8FF/Lyy	8ddLyy 8b-\yy	8b-/L	8dd\L	.	2.ryy	2.r	.	2.ryy
8F\yy	8ccyy 8a\yy	8a/	8cc\	.	.	.	.	.
8F\Jyy	8ccJyy 8a\yy	8a/J	8cc\J	.	.	.	.	.
4F\yy	4ccyy 4a\yy	4a/	4cc\	.	.	.	.	.
8ryy	8ryy	8r	8r	.	.	.	.	.
=144	=144	=144	=144	=144	=144	=144	=144	=144
!	!	!	!	!LO:DY:b:t=p.	!	!	!	!
4.C/yy	8.ggLyy 8.ee\yy	8.e/L	8.g/L	p	2.ryy	2.r	.	2.ryy
.	16aaKyy 16ff\yy	16f/K	16a/K	.	.	.	.	.
.	8ggJyy 8ee\yy	8e/J	8g/J	.	.	.	.	.
4.c\yy	8ggLyy 8ee\yy	8e/L	8g\L	.	.	.	.	.
.	8cccyy 8aa\yy	8a/	8cc\	.	.	.	.	.
.	8bb-Jyy 8gg\yy	8g/J	8b-\J	.	.	.	.	.
=145	=145	=145	=145	=145	=145	=145	=145	=145
4.F\yy	8bb-Lyy 8gg\yy	8g/L	8b-\L	.	2.ryy	2.r	.	2.ryy
.	8aayy 8ff\yy	8f/	8a\	.	.	.	.	.
.	8aaJyy 8ff\yy	8f/J	8a\J	.	.	.	.	.
8F\Lyy	8aayy 8ff\yy	4f/	4a\	.	.	.	.	.
8A\yy	8ryy	.	.	.	.	.	.	.
8c\Jyy	8cccyy 8aa\yy	8a/	8cc\	.	.	.	.	.
=146	=146	=146	=146	=146	=146	=146	=146	=146
!LO:PB:g=original	!LO:PB:g=original	!	!	!	!	!	!	!
4.C/yy	8.bb-Lyy 8.gg\yy	8.g/L	8.b-\L	.	2.ryy	2.r	.	2.ryy
.	16cccKyy 16aa\yy	16a/K	16cc\K	.	.	.	.	.
.	8bb-Jyy 8gg\yy	8g/J	8b-\J	.	.	.	.	.
4.c\yy	8aaLyy 8ff\yy	8.f/L	8.a\L	.	.	.	.	.
.	8bb-yy 8gg\yy	.	.	.	.	.	.	.
.	.	16g/K	16b-\K	.	.	.	.	.
.	8aaJyy 8ff\yy	8f/J	8a\J	.	.	.	.	.
=147	=147	=147	=147	=147	=147	=147	=147	=147
8C/Lyy	8aaLyy 8ff\yy	8f/L	8a/L	.	2.ryy	2.r	.	2.ryy
8E/yy	8ggyy 8ee\yy	8e/	8g/	.	.	.	.	.
8G/Jyy	8ggJyy 8ee\yy	8e/J	8g/J	.	.	.	.	.
4c\yy	4ggyy 4ee\yy	4e/	4g/	.	.	.	.	.
8ryy	8ryy	8r	8r	.	.	.	.	.
=148	=148	=148	=148	=148	=148	=148	=148	=148
4.F\yy	8cc\Lyy	4.f/	4.a/	.	2.ryy	2.r	.	2.ryy
.	8ccc\yy	.	.	.	.	.	.	.
.	8aa\Jyy	.	.	.	.	.	.	.
8ryy	8ff\Lyy	8f/L	8a/L	.	.	.	.	.
8ryy	8cc\yy	8a/	8cc/	.	.	.	.	.
8A\yy	8ee-XJyy 8ccyy 8a\yy	8cc/J	8ee-X/J	.	.	.	.	.
=149	=149	=149	=149	=149	=149	=149	=149	=149
4.B-\yy	8dd\Lyy	8b-\L	8dd\L	.	2.ryy	2.r	.	2.ryy
.	8een\yy	8g\	8een\	.	.	.	.	.
.	8ff\Jyy	8a\J	8ff\J	.	.	.	.	.
!LO:N:vis=2	!	!	!LO:LB:g=original	!	!	!	!	!
4.ryy	8gg\Lyy	8e/L	8gg\L	.	.	.	.	.
.	8aa\yy	8f/	8aa\	.	.	.	.	.
.	8bb-\Jyy	8g/J	8bb-\J	.	.	.	.	.
=150	=150	=150	=150	=150	=150	=150	=150	=150
!LO:TX:t=P:problem:mixed beam	!	!	!	!	!	!	!	!
8C/Lyy	4.aayy 4.ffyy 4.cc\yy	16c/LL	4.aa\	.	2.ryy	2.r	.	2.ryy
.	.	16f/	.	.	.	.	.	.
8cyy	.	16c/	.	.	.	.	.	.
.	.	16f/	.	.	.	.	.	.
8cJyy	.	16c/	.	.	.	.	.	.
.	.	16f/JJ	.	.	.	.	.	.
*tremolo	*	*	*	*	*	*	*	*
!	!	!LO:LB:g=original	!	!	!	!	!	!
8c\Lyy	4.ggyy 4.eeyy 4.cc\yy	16c/LL	4.gg\	.	.	.	.	.
.	.	16e/	.	.	.	.	.	.
8c\yy	.	16c/	.	.	.	.	.	.
.	.	16e/	.	.	.	.	.	.
8c\Jyy	.	16c/	.	.	.	.	.	.
.	.	16e/JJ	.	.	.	.	.	.
*Xtremolo	*	*	*	*	*	*	*	*
=151	=151	=151	=151	=151	=151	=151	=151	=151
4.F\yy	8ffLyy 8ccyy 8a\yy	4.f/	4ff\	.	2.ryy	2.r	.	2.ryy
.	8ccc\yy	.	.	.	.	.	.	.
.	8aa\Jyy	.	8f/	.	.	.	.	.
8ryy	8ff\Lyy	8f/L	8a/L	.	.	.	.	.
8ryy	8cc\yy	8a/	16cc/L	.	.	.	.	.
.	.	.	16ee/J	.	.	.	.	.
8A\yy	8ee-XJyy 8ccyy 8a\yy	8cc/J	8ee/J	.	.	.	.	.
=152	=152	=152	=152	=152	=152	=152	=152	=152
!LO:LB:g=original	!LO:LB:g=original	!	!	!	!	!	!	!
4.B-\yy	8dd\Lyy	8b-\L	8dd\L	.	2.ryy	2.r	.	2.ryy
.	8een\yy	8g\	8een\	.	.	.	.	.
.	8ff\Jyy	8a\J	8ff\J	.	.	.	.	.
!LO:N:vis=2	!	!	!	!	!	!	!	!
4.ryy	8gg\Lyy	8e/L	8gg\L	.	.	.	.	.
.	8aa\yy	8f/	8aa\	.	.	.	.	.
.	8bb-\Jyy	8g/J	8bb-\J	.	.	.	.	.
=153	=153	=153	=153	=153	=153	=153	=153	=153
!LO:TX:t=P:problem:mixed beam	!	!	!	!	!	!	!	!
8C/Lyy	4.aayy 4.ffyy 4.cc\yy	16c/LL	4.aa\	.	2.ryy	2.r	.	2.ryy
.	.	16f/	.	.	.	.	.	.
8c\yy	.	16c/	.	.	.	.	.	.
.	.	16f/	.	.	.	.	.	.
8c\Jyy	.	16c/	.	.	.	.	.	.
.	.	16f/JJ	.	.	.	.	.	.
*tremolo	*	*	*	*	*	*	*	*
8c\Lyy	4.ggyy 4.eeyy 4.cc\yy	16c/LL	4.gg\	.	.	.	.	.
.	.	16e/	.	.	.	.	.	.
8c\yy	.	16c/	.	.	.	.	.	.
.	.	16e/	.	.	.	.	.	.
8c\Jyy	.	16c/	.	.	.	.	.	.
.	.	16e/JJ	.	.	.	.	.	.
*Xtremolo	*	*	*	*	*	*	*	*
=154	=154	=154	=154	=154	=154	=154	=154	=154
8f\Lyy	8ff\Lyy	8f\L	8ff\L	.	2.ryy	2.r	.	2.ryy
8c\yy	8cc\yy	8cc\	8cc\	.	.	.	.	.
8c\Jyy	8cc\Jyy	8cc\J	8cc\J	.	.	.	.	.
8c\Lyy	8cc\Lyy	8cc\L	8cc\L	.	.	.	.	.
8A\yy	8a\yy	8a\	8a\	.	.	.	.	.
8A\Jyy	8a\Jyy	8a\J	8a\J	.	.	.	.	.
=155	=155	=155	=155	=155	=155	=155	=155	=155
8F\Lyy	8f/Lyy	8f/L	8f/L	.	2.ryy	2.r	.	2.ryy
8F\yy	8f/yy	8f/	8f/	.	.	.	.	.
8F\Jyy	8f/Jyy	8f/J	8f/J	.	.	.	.	.
4F\yy	4f/yy	4f/	4f/	.	.	.	.	.
!	!LO:TX:b:i:t=finis	!	!	!	!	!	!	!
8ryy	8ryy	8r	8r	.	.	.	.	.
==	==	==	==	==	==	==	==	==
*-	*-	*-	*-	*-	*-	*-	*-	*-
!!!system-decoration: [(g1)][(g2)]{(g3)}
!!!AIN: 1 bass 1 organ 1 soprn 1 tenor 2 violn
!!!ENC: Mateusz Solarz
!!!END: 2021-11-26
!!!ENC: Kamil Watkowski
!!!END: 2021-12-07
